; generated by Slic3r 1.2.9 on 2016-04-05 at 21:55:15

; external perimeters extrusion width = 0.50mm
; perimeters extrusion width = 0.85mm
; infill extrusion width = 1.02mm
; solid infill extrusion width = 0.19mm
; top infill extrusion width = 0.19mm
; support material extrusion width = 0.50mm

M104 S210 ; set temperature
M106
G92 X0 Y0 Z0
M109 S210 ; wait for temperature to be reached
G21 ; set units to millimeters
G90 ; use absolute coordinates
M82 ; use absolute distances for extrusion
G92 E0
M106 S255
G1 Z0.300 F5400.000
G28 X 
G28 Y
G1 X4.374 Y5.63 F5400.000
G1 X5.188 Y5.697 E0.06548 F329.577
G1 X9.021 Y8.258 E0.31869
G1 X21.303 Y18.082 E1.12276
G1 X24.657 Y21.275 E1.34491
G1 X25.235 Y22.027 E1.38718
G1 X25.566 Y22.61 E1.41730
G1 X25.812 Y23.171 E1.44587
G1 X27.813 Y29.6 E1.78810
G1 X27.885 Y29.921 E1.80606
G1 X29.887 Y46.151 E2.77276
G1 X29.896 Y47.284 E2.84645
G1 X29.875 Y47.481 E2.86047
G1 X29.541 Y48.865 E2.97053
G1 X29.448 Y49.051 E2.98901
G1 X29.063 Y49.517 E3.04535
G1 X28.902 Y49.624 E3.06400
G1 X27.789 Y49.969 E3.17311
G1 X27.555 Y49.981 E3.19314
G1 X26.843 Y49.852 E3.24787
G1 X26.669 Y49.795 E3.26061
G1 X25.911 Y49.478 E3.31359
G1 X25.356 Y49.158 E3.35090
G1 X24.704 Y48.711 E3.39387
G1 X5.438 Y33.302 E4.65517
G1 X4.783 Y32.733 E4.69815
G1 X4.227 Y32.184 E4.73516
G1 X3.795 Y31.722 E4.76447
G1 X3.249 Y31.056 E4.80314
G1 X2.803 Y30.482 E4.83575
G1 X2.325 Y29.792 E4.87295
G1 X1.886 Y29.087 E4.90981
G1 X1.479 Y28.358 E4.94723
G1 X1.098 Y27.582 E4.98691
G1 X0.752 Y26.75 E5.03004
G1 X0.411 Y25.699 E5.08570
G1 X0.233 Y24.929 E5.12828
G1 X0.198 Y24.71 E5.14074
G1 X0.112 Y23.755 E5.19940
G1 X0.094 Y22.637 E5.27156
G1 X2.119 Y9.429 E6.25108
G1 X2.187 Y9.23 E6.26835
G1 X4.191 Y5.86 E6.61967
G1 X4.340 Y5.673 E6.64200
G1 X4.853 Y6.254 F5400.000
G1 X5.260 Y6.291 E6.67474 F329.577
G1 X9.021 Y8.794 E6.92323
G1 X21.303 Y18.618 E7.72730
G1 X24.574 Y21.74 E7.94402
G1 X24.863 Y22.116 E7.96515
G1 X25.194 Y22.7 E7.99528
G1 X25.317 Y22.976 E8.00956
G1 X27.318 Y29.405 E8.35179
G1 X27.354 Y29.57 E8.36077
G1 X29.356 Y45.799 E9.32747
G1 X29.350 Y46.958 E9.40338
G1 X29.016 Y48.334 E9.51344
G1 X28.970 Y48.435 E9.52268
G1 X28.584 Y48.893 E9.57902
G1 X28.504 Y48.946 E9.58834
G1 X27.391 Y49.299 E9.69746
G1 X27.273 Y49.301 E9.70747
G1 X26.562 Y49.172 E9.76220
G1 X25.865 Y48.893 E9.81142
G1 X25.235 Y48.54 E9.85379
G1 X24.600 Y48.1 E9.89561
G1 X5.438 Y32.766 E11.15012
G1 X4.873 Y32.277 E11.18718
G1 X4.369 Y31.78 E11.22071
G1 X3.937 Y31.317 E11.25002
G1 X3.463 Y30.741 E11.28375
G1 X3.043 Y30.196 E11.31444
G1 X2.619 Y29.577 E11.34751
G1 X2.226 Y28.945 E11.38068
G1 X1.859 Y28.284 E11.41456
G1 X1.519 Y27.586 E11.45027
G1 X1.212 Y26.843 E11.48888
G1 X0.926 Y25.961 E11.53536
G1 X0.731 Y25.089 E11.58415
G1 X0.647 Y24.162 E11.64040
G1 X0.624 Y23.133 E11.70676
G1 X2.650 Y9.933 E12.68628
G1 X2.684 Y9.83 E12.69492
G1 X4.688 Y6.452 E13.04624
G1 X4.819 Y6.289 E13.06569
G1 X5.332 Y6.878 F5400.000
G1 X5.185 Y7.052 E13.08318 F405.234
G1 X5.185 Y8.032 F5400.000
G1 X5.823 Y7.27 E13.15904 F405.234
G1 X6.314 Y7.662 E13.18520
G1 X5.185 Y9.012 E13.31944
G1 X5.185 Y9.992 F5400.000
G1 X6.806 Y8.054 E13.51207 F405.234
G1 X7.297 Y8.446 E13.53823
G1 X5.656 Y10.407 E13.73320
G1 X6.147 Y10.799 E13.75936
G1 X7.788 Y8.838 E13.95433
G1 X8.279 Y9.23 E13.98049
G1 X6.639 Y11.191 E14.17547
G1 X7.130 Y11.591 E14.20162
G1 X9.021 Y9.33 E14.42639
G1 X9.513 Y9.722 E14.45255
G1 X7.621 Y11.983 E14.67732
G1 X8.113 Y12.375 E14.70348
G1 X10.004 Y10.114 E14.92825
G1 X10.495 Y10.506 E14.95441
G1 X8.604 Y12.767 E15.17918
G1 X8.681 Y13.658 E15.22338
G1 X10.987 Y10.898 E15.49737
G1 X11.478 Y11.29 E15.52353
G1 X8.681 Y14.638 E15.85590
G1 X8.230 Y14.198 E15.88029
G1 X6.589 Y16.151 E16.07528
G1 X6.098 Y15.759 E16.10144
G1 X7.739 Y13.798 E16.29643
G1 X7.247 Y13.406 E16.32259
G1 X5.607 Y15.367 E16.51758
G1 X5.115 Y14.975 E16.54374
G1 X6.756 Y13.014 E16.73873
G1 X6.265 Y12.622 E16.76489
G1 X4.624 Y14.583 E16.95988
G1 X4.133 Y14.191 E16.98604
G1 X5.774 Y12.23 E17.18103
G1 X5.282 Y11.838 E17.20718
G1 X3.641 Y13.799 E17.40218
G1 X3.181 Y13.37 F5400.000
G1 X4.791 Y11.446 E17.59353 F405.234
G1 X3.317 Y10.262 F5400.000
G1 X3.181 Y10.43 E17.60974 F405.234
G1 X3.181 Y11.41 F5400.000
G1 X3.809 Y10.654 E17.68433 F405.234
G1 X4.300 Y11.054 E17.71049
G1 X3.181 Y12.39 E17.84346
G92 E0
G1 X3.181 Y16.311 F5400.000
G1 X3.759 Y15.614 E0.06869 F405.234
G1 X4.250 Y16.014 E0.09485
G1 X3.181 Y17.291 E0.22191
G1 X3.181 Y18.271 F5400.000
G1 X4.741 Y16.406 E0.40736 F405.234
G1 X5.233 Y16.798 E0.43351
G1 X3.592 Y18.759 E0.62851
G1 X4.083 Y19.151 E0.65466
G1 X5.724 Y17.19 E0.84965
G1 X6.215 Y17.582 E0.87581
G1 X4.574 Y19.543 E1.07080
G1 X5.066 Y19.935 E1.09696
G1 X6.706 Y17.974 E1.29195
G1 X7.198 Y18.366 E1.31811
G1 X5.557 Y20.327 E1.51310
G1 X6.048 Y20.719 E1.53926
G1 X7.689 Y18.758 E1.73425
G1 X8.180 Y19.158 E1.76041
G1 X6.539 Y21.111 E1.95540
G1 X7.031 Y21.511 E1.98155
G1 X11.846 Y15.753 E2.55373
G1 X11.846 Y14.773 F5400.000
G1 X8.681 Y18.559 E2.92980 F405.234
G1 X8.554 Y17.727 E2.96911
G1 X11.846 Y13.792 E3.36024
G1 X11.846 Y12.812 F5400.000
G1 X8.063 Y17.335 E3.80975 F405.234
G1 X7.572 Y16.943 E3.83590
G1 X11.846 Y11.832 E4.34379
G92 E0
G1 X11.846 Y16.733 F5400.000
G1 X7.522 Y21.903 E0.51379 F405.234
G1 X8.013 Y22.295 E0.53995
G1 X11.846 Y17.713 E0.99536
G1 X11.846 Y18.693 F5400.000
G1 X8.504 Y22.687 E1.39240 F405.234
G1 X8.681 Y23.46 F5400.000
G1 X11.846 Y19.673 E1.76847 F405.234
G1 X11.846 Y20.654 F5400.000
G1 X6.981 Y26.471 E2.34655 F405.234
G1 X6.490 Y26.079 E2.37270
G1 X8.130 Y24.118 E2.56768
G1 X7.639 Y23.718 E2.59384
G1 X5.998 Y25.679 E2.78881
G1 X5.507 Y25.287 E2.81497
G1 X7.148 Y23.326 E3.00993
G1 X6.657 Y22.934 E3.03609
G1 X5.185 Y24.695 E3.21101
G1 X5.185 Y23.715 F5400.000
G1 X6.165 Y22.542 E3.32754 F405.234
G1 X5.674 Y22.15 E3.35370
G1 X5.185 Y22.734 E3.41185
G92 E0
G1 X7.472 Y26.863 F5400.000
G1 X11.846 Y21.634 E0.51970 F405.234
G1 X11.846 Y22.614 F5400.000
G1 X7.963 Y27.255 E0.98102 F405.234
G1 X8.455 Y27.647 E1.00717
G1 X11.846 Y23.594 E1.41011
G1 X11.846 Y24.574 F5400.000
G1 X8.681 Y28.36 E1.78618 F405.234
G1 X8.331 Y28.778 F5400.000
G1 X5.438 Y32.23 E2.13001 F405.234
G1 X4.964 Y31.821 E2.15533
G1 X7.840 Y28.386 E2.49716
G1 X7.349 Y27.986 E2.52332
G1 X4.511 Y31.383 E2.86054
G1 X4.079 Y30.913 E2.88438
G1 X6.858 Y27.594 E3.21453
G1 X6.366 Y27.202 E3.24069
G1 X3.676 Y30.418 E3.56040
G1 X3.283 Y29.909 E3.58379
G1 X5.875 Y26.81 E3.89178
G1 X5.384 Y26.418 E3.91794
G1 X2.914 Y29.369 E4.21144
G1 X2.566 Y28.804 E4.23542
G1 X4.893 Y26.026 E4.51190
G1 X4.401 Y25.634 E4.53806
G1 X2.240 Y28.219 E4.79496
G1 X1.939 Y27.59 E4.82078
G1 X3.910 Y25.242 E5.05501
G1 X3.419 Y24.842 E5.08117
G1 X1.672 Y26.936 E5.28879
G1 X1.442 Y26.23 E5.31914
G1 X2.928 Y24.45 E5.49571
G1 X2.436 Y24.058 E5.52187
G1 X1.264 Y25.461 E5.66118
G1 X1.183 Y24.578 E5.70496
G1 X1.945 Y23.666 E5.79554
G1 X1.454 Y23.274 E5.82170
G1 X1.155 Y23.63 E5.85720
G92 E0
G1 X5.929 Y32.622 F5400.000
G1 X11.846 Y25.554 E0.70304 F405.234
G1 X11.846 Y26.535 F5400.000
G1 X6.421 Y33.022 E1.34770 F405.234
G1 X6.912 Y33.414 E1.37386
G1 X11.846 Y27.515 E1.96014
G1 X11.846 Y28.495 F5400.000
G1 X7.403 Y33.806 E2.48805 F405.234
G1 X7.894 Y34.198 E2.51421
G1 X11.846 Y29.475 E2.98373
G1 X11.846 Y30.455 F5400.000
G1 X8.386 Y34.59 E3.39488 F405.234
G1 X8.877 Y34.982 E3.42104
G1 X11.846 Y31.436 E3.77380
G1 X12.262 Y31.922 F5400.000
G1 X9.368 Y35.374 E4.11763 F405.234
G1 X9.859 Y35.766 E4.14379
G1 X12.753 Y32.314 E4.48762
G1 X13.244 Y32.706 E4.51378
G1 X10.351 Y36.166 E4.85761
G1 X10.842 Y36.558 E4.88377
G1 X13.735 Y33.098 E5.22760
G1 X14.227 Y33.49 E5.25376
G1 X11.333 Y36.95 E5.59759
G1 X11.825 Y37.342 E5.62375
G1 X14.718 Y33.882 E5.96758
G1 X15.209 Y34.274 E5.99373
G1 X12.316 Y37.734 E6.33756
G1 X12.807 Y38.126 E6.36372
G1 X15.700 Y34.674 E6.70755
G1 X16.192 Y35.066 E6.73371
G1 X13.298 Y38.518 E7.07754
G1 X13.790 Y38.918 E7.10370
G1 X16.683 Y35.458 E7.44753
G1 X17.174 Y35.85 E7.47369
G1 X14.281 Y39.31 E7.81752
G1 X14.772 Y39.702 E7.84368
G1 X17.665 Y36.242 E8.18751
G1 X18.161 Y35.653 F5400.000
G1 X22.427 Y30.55 E8.69444 F405.234
G1 X22.918 Y30.942 E8.72060
G1 X15.263 Y40.094 E9.63025
G1 X15.755 Y40.486 E9.65641
G1 X21.319 Y33.832 E10.31765
G1 X21.395 Y34.726 E10.36199
G1 X16.246 Y40.878 E10.97384
G1 X16.737 Y41.27 E10.99999
G1 X21.886 Y35.118 E11.61184
G1 X22.377 Y35.51 E11.63800
G1 X17.228 Y41.662 E12.24985
G1 X17.720 Y42.062 E12.27601
G1 X21.319 Y37.753 E12.70373
G1 X21.719 Y38.255 E12.72713
G1 X23.360 Y36.302 E12.92213
G1 X22.868 Y35.902 E12.94828
G1 X21.228 Y37.863 E13.14327
G1 X21.319 Y38.733 E13.18603
G1 X18.211 Y42.454 E13.55537
G1 X18.702 Y42.846 E13.58153
G1 X21.596 Y39.386 E13.92536
G1 X22.087 Y39.778 E13.95152
G1 X19.194 Y43.238 E14.29535
G1 X19.685 Y43.63 E14.32151
G1 X22.578 Y40.17 E14.66534
G1 X23.069 Y40.562 E14.69150
G1 X20.176 Y44.022 E15.03533
G1 X20.667 Y44.414 E15.06149
G1 X23.561 Y40.962 E15.40532
G1 X24.052 Y41.354 E15.43147
G1 X21.159 Y44.806 E15.77530
G1 X21.650 Y45.206 E15.80146
G1 X24.543 Y41.746 E16.14529
G1 X25.034 Y42.138 E16.17145
G1 X22.141 Y45.598 E16.51528
G1 X22.632 Y45.99 E16.54144
G1 X25.526 Y42.53 E16.88527
G1 X26.017 Y42.922 E16.91143
G1 X23.124 Y46.382 E17.25526
G1 X23.615 Y46.774 E17.28141
G1 X26.508 Y43.314 E17.62525
G1 X27.000 Y43.714 E17.65140
G1 X24.106 Y47.166 E17.99523
G1 X24.598 Y47.557 E18.02143
G1 X27.491 Y44.106 E18.36517
G1 X27.982 Y44.498 E18.39133
G1 X25.115 Y47.922 E18.73202
G1 X25.670 Y48.242 E18.76237
G1 X28.473 Y44.89 E19.09545
G1 X28.825 Y45.448 E19.11933
G1 X26.281 Y48.492 E19.42169
G1 X26.992 Y48.621 E19.46620
G1 X28.825 Y46.428 E19.68403
G1 X28.491 Y47.811 F5400.000
G1 X28.105 Y48.269 E19.72985 F405.234
G92 E0
G1 X24.822 Y40.432 F5400.000
G1 X24.666 Y40.615 E0.01853 F405.234
G1 X24.175 Y40.223 E0.04469
G1 X24.822 Y39.452 E0.12160
G1 X24.822 Y38.472 F5400.000
G1 X23.684 Y39.831 E0.25689 F405.234
G1 X23.193 Y39.439 E0.28305
G1 X24.822 Y37.492 E0.47672
G1 X24.342 Y37.086 E0.50231
G1 X22.701 Y39.047 E0.69730
G1 X22.210 Y38.655 E0.72346
G1 X23.851 Y36.694 E0.91845
G92 E0
G1 X25.207 Y36.047 F5400.000
G1 X26.823 Y34.119 E0.19203 F405.234
G1 X26.357 Y33.694 F5400.000
G1 X24.716 Y35.655 E0.38702 F405.234
G1 X24.225 Y35.263 E0.41318
G1 X25.866 Y33.302 E0.60817
G1 X25.375 Y32.91 E0.63433
G1 X23.734 Y34.871 E0.82932
G1 X23.242 Y34.479 E0.85548
G1 X24.883 Y32.518 E1.05047
G1 X24.392 Y32.126 E1.07663
G1 X22.751 Y34.087 E1.27162
G1 X22.260 Y33.695 E1.29777
G1 X23.901 Y31.734 E1.49276
G1 X23.409 Y31.334 E1.51892
G1 X21.769 Y33.295 E1.71391
G92 E0
G1 X18.161 Y30.752 F5400.000
G1 X22.477 Y25.59 E0.51284 F405.234
G1 X21.985 Y25.198 E0.53900
G1 X18.161 Y29.772 E0.99347
G1 X18.161 Y28.792 F5400.000
G1 X21.494 Y24.806 E1.38956 F405.234
G1 X21.319 Y24.031 F5400.000
G1 X18.161 Y27.812 E1.76485 F405.234
G1 X18.161 Y26.831 F5400.000
G1 X23.018 Y21.022 E2.34197 F405.234
G1 X23.509 Y21.414 E2.36813
G1 X21.868 Y23.375 E2.56312
G1 X22.359 Y23.767 E2.58928
G1 X24.000 Y21.814 E2.78427
G1 X24.491 Y22.206 E2.81043
G1 X22.850 Y24.167 E3.00542
G1 X23.342 Y24.559 E3.03158
G1 X24.822 Y22.789 E3.20753
G1 X24.822 Y23.769 F5400.000
G1 X23.833 Y24.951 E3.32511 F405.234
G1 X24.324 Y25.343 E3.35127
G1 X24.822 Y24.75 E3.41046
G92 E0
G1 X24.933 Y27.558 F5400.000
G1 X23.292 Y29.519 E0.19499 F405.234
G1 X22.801 Y29.127 E0.22115
G1 X24.442 Y27.166 E0.41614
G1 X23.950 Y26.774 E0.44230
G1 X22.310 Y28.735 E0.63729
G1 X21.818 Y28.335 E0.66345
G1 X23.459 Y26.374 E0.85844
G1 X22.968 Y25.982 E0.88459
G1 X21.327 Y27.943 E1.07958
G1 X21.319 Y27.951 F5400.000
G1 X18.161 Y31.732 E1.45488 F405.234
G1 X18.161 Y32.713 F5400.000
G1 X21.319 Y28.931 E1.83017 F405.234
G92 E0
G1 X23.783 Y29.911 F5400.000
G1 X25.424 Y27.95 E0.19499 F405.234
G1 X25.915 Y28.342 E0.22115
G1 X24.275 Y30.303 E0.41614
G1 X24.766 Y30.695 E0.44230
G1 X26.407 Y28.734 E0.63729
G1 X26.823 Y29.218 E0.66085
G1 X25.257 Y31.087 E0.84697
G1 X25.748 Y31.479 E0.87313
G1 X26.823 Y30.199 E1.00088
G1 X26.823 Y31.179 F5400.000
G1 X26.240 Y31.879 E1.07025 F405.234
G92 E0
G1 X26.823 Y35.099 F5400.000
G1 X25.699 Y36.439 E0.13365 F405.234
G1 X26.190 Y36.839 E0.15981
G1 X26.823 Y36.08 E0.23509
G1 X26.823 Y37.06 F5400.000
G1 X26.681 Y37.231 E0.25198 F405.234
G92 E0
G1 X18.161 Y33.693 F5400.000
G1 X21.444 Y29.766 E0.39018 F405.234
G1 X21.936 Y30.158 E0.41634
G1 X18.161 Y34.673 E0.86490
G92 E0
G1 X18.161 Y25.851 F5400.000
G1 X22.526 Y20.63 E0.51875 F405.234
G1 X22.035 Y20.238 E0.54490
G1 X18.161 Y24.871 E1.00527
G1 X18.161 Y23.891 F5400.000
G1 X21.544 Y19.846 E1.40726 F405.234
G1 X21.303 Y19.154 F5400.000
G1 X18.161 Y22.911 E1.78064 F405.234
G1 X18.161 Y21.931 F5400.000
G1 X20.812 Y18.762 E2.09565 F405.234
G1 X20.321 Y18.37 E2.12181
G1 X18.161 Y20.95 E2.37844
G1 X18.161 Y19.97 F5400.000
G1 X19.829 Y17.97 E2.57669 F405.234
G1 X19.338 Y17.578 E2.60285
G1 X18.161 Y18.99 E2.74272
G1 X18.161 Y18.01 F5400.000
G1 X18.847 Y17.186 E2.82421 F405.234
G1 X18.356 Y16.794 E2.85037
G1 X18.161 Y17.03 E2.87348
G92 E0
G1 X8.721 Y14.59 F5400.000
G1 X7.080 Y16.551 E0.19499 F405.234
M104 S200 ; set temperature
G1 Z1.000 F5400.000
G28 X 
G28 Y
G92 E0
G1 X9.292 Y32.276 F5400.000
M106 S255
G1 X9.292 Y33.276 E0.07199 F299.683
G1 X5.444 Y30.195 E0.34904
G1 X5.122 Y29.907 E0.37239
G1 X4.818 Y29.586 E0.39490
G1 X4.525 Y29.242 E0.41744
G1 X4.251 Y28.875 E0.43998
G1 X3.998 Y28.481 E0.46258
G1 X3.773 Y28.088 E0.48509
G1 X3.579 Y27.682 E0.50768
G1 X3.420 Y27.294 E0.53012
G1 X3.250 Y26.756 E0.56154
G1 X26.757 Y45.556 E2.25405
G1 X26.587 Y45.821 E2.28543
G1 X26.427 Y45.962 E2.30798
G1 X26.233 Y46.056 E2.33051
G1 X26.009 Y46.089 E2.35299
G1 X25.755 Y46.075 E2.37562
G1 X25.482 Y46.01 E2.39813
G1 X25.190 Y45.89 E2.42065
G1 X24.891 Y45.722 E2.44277
G1 X24.467 Y45.412 E2.47337
G1 X18.551 Y40.684 E2.89936
G1 X18.551 Y39.684 E2.97136
G1 X16.235 Y37.828 E3.13807
G1 X16.235 Y38.828 E3.21007
G1 X13.241 Y36.436 E3.42566
G1 X13.236 Y35.428 E3.49766
G1 X9.367 Y32.332 E3.77618
M106 S255
G1 X9.697 Y33.001 F5400.000
M106 S255
G1 X9.697 Y34.001 E3.84818 F299.683
G1 X5.424 Y30.585 E4.15587
G1 X5.054 Y30.251 E4.18263
G1 X4.697 Y29.878 E4.20905
G1 X4.354 Y29.474 E4.23551
G1 X4.032 Y29.041 E4.26196
G1 X3.736 Y28.583 E4.28845
G1 X3.472 Y28.12 E4.31485
G1 X3.244 Y27.648 E4.34135
G1 X3.057 Y27.181 E4.36770
G1 X2.914 Y26.731 E4.39413
G1 X2.817 Y26.296 E4.42063
G1 X2.777 Y25.966 E4.44223
G1 X27.220 Y45.526 E6.20210
G1 X27.189 Y45.795 E6.22388
G1 X27.092 Y46.074 E6.25007
G1 X26.949 Y46.292 E6.27652
G1 X26.762 Y46.464 E6.30293
G1 X26.534 Y46.568 E6.32938
G1 X26.271 Y46.615 E6.35579
G1 X25.974 Y46.593 E6.38228
G1 X25.653 Y46.514 E6.40870
G1 X25.310 Y46.374 E6.43516
G1 X24.955 Y46.171 E6.46145
G1 X24.484 Y45.833 E6.49547
G1 X18.145 Y40.761 E6.95182
G1 X18.145 Y39.761 E7.02382
G1 X16.640 Y38.561 E7.13218
G1 X16.640 Y39.561 E7.20418
G1 X12.838 Y36.513 E7.47797
G1 X12.833 Y35.513 E7.54997
G1 X9.772 Y33.065 E7.77030
M106 S255
G92 E0
G1 X13.578 Y35.356 F5400.000
G1 X18.895 Y39.612 F5400.000
G1 X23.494 Y38.042 F5400.000
G1 X19.802 Y35.09 E0.31411 F253.572
G1 X19.740 Y35.292 E0.33603
G1 X19.740 Y39.292 E0.67640
G92 E0
G1 X19.990 Y35.996 F5400.000
G1 X19.740 Y34.792 E0.08797 F253.572
G1 X19.740 Y30.292 E0.47089
G1 X19.802 Y30.09 E0.49281
G1 X25.495 Y34.642 E0.97719
G92 E0
G1 X26.219 Y45.468 F5400.000
G1 X26.219 Y45.468 F5400.000
G1 X25.495 Y29.642 F5400.000
G1 X19.802 Y25.09 E0.48437 F253.572
G1 X19.740 Y25.293 E0.50630
G1 X19.740 Y29.792 E0.88922
G1 X19.990 Y30.996 E0.97719
G92 E0
G1 X19.990 Y25.996 F5400.000
G1 X19.740 Y24.792 E0.08797 F253.572
G1 X19.740 Y20.292 E0.47089
G1 X19.802 Y20.09 E0.49281
G1 X23.494 Y23.042 E0.80692
G92 E0
G1 X18.895 Y39.612 F5400.000
G1 X18.895 Y39.612 F5400.000
G1 X19.990 Y20.996 F5400.000
G1 X19.740 Y19.792 E0.08797 F253.572
G1 X19.740 Y19.292 E0.13052
G92 E0
G1 X15.891 Y37.212 F5400.000
G1 X15.391 Y37.312 F5400.000
G1 X14.080 Y36.264 F5400.000
G1 X13.578 Y35.356 F5400.000
G1 X10.517 Y12.658 F5400.000
G1 X6.513 Y9.459 E0.34068 F253.572
G92 E0
G1 X8.948 Y31.652 F5400.000
G1 X8.948 Y31.652 F5400.000
G1 X10.263 Y11.708 F5400.000
G1 X10.263 Y12.208 E0.04255 F253.572
G1 X10.202 Y12.41 E0.06446
G1 X10.263 Y12.708 E0.08637
G1 X10.263 Y17.208 E0.46928
G1 X10.202 Y17.41 E0.49119
G1 X10.263 Y17.709 E0.51310
G1 X10.263 Y22.208 E0.89602
G1 X10.202 Y22.41 E0.91793
G1 X10.263 Y22.708 E0.93984
G1 X10.263 Y27.208 E1.32276
G1 X10.202 Y27.41 E1.34467
G1 X10.263 Y27.708 E1.36658
G1 X10.263 Y31.708 E1.70695
G1 X10.517 Y27.658 F5400.000
G1 X6.513 Y24.459 E2.04763 F253.572
G92 E0
G1 X3.787 Y27.524 F5400.000
G1 X3.787 Y27.524 F5400.000
G1 X4.509 Y17.85 F5400.000
G1 X10.517 Y22.658 E0.51119 F253.572
G92 E0
G1 X10.517 Y17.658 F5400.000
G1 X4.509 Y12.85 E0.51119 F253.572
G92 E0
G1 X3.787 Y27.524 F5400.000
G1 X3.787 Y27.524 F5400.000
G1 X3.932 Y27.727 F5400.000
G1 X3.864 Y27.718 F5400.000
G1 X3.739 Y27.718 F5400.000
M106 S255
G1 X4.077 Y27.652 E0.09225 F112.037
G1 X5.245 Y28.588 E0.31717
G1 X4.333 Y28.772 E0.56570
G1 X5.215 Y29.762 E0.74433
G1 X6.413 Y29.524 E1.07057
G1 X7.581 Y30.46 E1.29549
G1 X6.373 Y30.7 E1.62444
G1 X7.541 Y31.636 E1.84931
G1 X8.749 Y31.388 E2.17833
G1 X9.052 Y32.5 E2.35474
G1 X8.708 Y32.564 E2.44847
M106 S255
G1 X13.507 Y35.508 F5400.000
M106 S255
G1 X13.786 Y35.452 E2.52462 F112.037
G1 X14.800 Y36.268 E2.71986
G1 X13.656 Y36.492 E3.03148
G1 X14.670 Y37.308 E3.22672
G1 X15.814 Y37.076 E3.53833
G1 X15.963 Y38.06 E3.70728
G1 X15.683 Y38.116 E3.78346
M106 S255
G1 X18.832 Y39.763 F5400.000
M106 S255
G1 X19.094 Y39.709 E3.85494 F112.037
G1 X19.893 Y40.349 E4.00883
G1 X18.832 Y40.562 E4.29794
G1 X19.565 Y41.211 E4.43979
G1 X20.692 Y40.989 E4.74671
G1 X21.491 Y41.629 E4.90059
G1 X20.364 Y41.851 E5.20751
G1 X21.163 Y42.491 E5.36140
G1 X22.290 Y42.269 E5.66831
G1 X23.089 Y42.901 E5.82220
G1 X21.962 Y43.131 E6.12912
G1 X22.761 Y43.771 E6.28300
G1 X23.888 Y43.541 E6.58992
G1 X24.687 Y44.181 E6.74381
G1 X23.560 Y44.411 E7.05072
G1 X24.361 Y45.05 E7.20495
G1 X25.486 Y44.821 E7.51139
G1 X26.157 Y45.484 E7.64297
G1 X25.561 Y45.609 E7.80536
M106 S255
G1 X18.419 Y39.337 F5400.000
G1 X18.605 Y39.302 E7.82691 F264.105
G1 X18.069 Y38.839 E7.87083
G1 X17.852 Y38.889 E7.89591
G1 X17.502 Y38.391 E7.92956
G1 X17.284 Y38.433 E7.95464
G1 X16.934 Y37.935 E7.98829
G1 X16.717 Y37.977 E8.01337
G1 X16.367 Y37.479 E8.04703
G1 X16.181 Y37.522 E8.06858
G1 X13.102 Y35.089 F5400.000
G1 X13.288 Y35.046 E8.08972 F269.206
G1 X12.763 Y34.599 E8.13194
G1 X12.546 Y34.641 E8.15654
G1 X12.206 Y34.151 E8.18883
G1 X11.989 Y34.193 E8.21343
G1 X11.650 Y33.711 E8.24572
G1 X11.433 Y33.753 E8.27033
G1 X11.093 Y33.263 E8.30261
G1 X10.876 Y33.305 E8.32722
G1 X10.537 Y32.815 E8.35951
G1 X10.320 Y32.865 E8.38411
G1 X9.981 Y32.375 E8.41640
G1 X9.764 Y32.417 E8.44100
G1 X9.424 Y31.927 E8.47329
G1 X9.238 Y31.962 E8.49444
G1 Z1.200 F5400.000
G28 X 
G28 Y
G92 E0
G1 X18.778 Y40.633 F5400.000
G1 X18.778 Y39.399 E0.08121 F328.087
G1 X26.475 Y45.559 E0.58746
G1 X26.053 Y45.76 E0.63238
G1 X25.850 Y45.795 E0.65091
G1 X25.621 Y45.78 E0.66962
G1 X25.374 Y45.716 E0.68815
G1 X25.111 Y45.609 E0.70674
G1 X24.843 Y45.457 E0.72481
G1 X24.445 Y45.169 E0.75111
G1 X18.853 Y40.697 E1.11889
G92 E0
G1 X18.895 Y40.612 F5400.000
G1 X18.895 Y40.612 F5400.000
G1 X16.008 Y38.417 F5400.000
G1 X12.761 Y35.825 E0.21356 F328.087
G1 X12.765 Y34.591 E0.29477
G1 X16.008 Y37.183 E0.50808
G1 X16.008 Y38.342 E0.58436
G92 E0
G1 X12.879 Y35.796 F5400.000
G1 X12.879 Y35.796 F5400.000
G1 X9.065 Y32.865 F5400.000
G1 X5.467 Y29.984 E0.23667 F328.087
G1 X5.171 Y29.723 E0.25624
G1 X4.896 Y29.433 E0.27481
G1 X4.633 Y29.124 E0.29338
G1 X4.385 Y28.788 E0.31199
G1 X4.156 Y28.435 E0.33062
G1 X3.954 Y28.079 E0.34917
G1 X3.530 Y27.207 E0.39415
G1 X9.065 Y31.631 E0.75820
G1 X9.065 Y32.79 E0.83447
G1 X9.697 Y33.001 F5400.000
G1 X9.697 Y34.001 E0.87172 F579.313
G1 X5.435 Y30.593 E1.03047
G1 X5.065 Y30.259 E1.04431
G1 X4.708 Y29.886 E1.05799
G1 X4.366 Y29.482 E1.07166
G1 X4.043 Y29.049 E1.08535
G1 X3.747 Y28.591 E1.09905
G1 X3.484 Y28.128 E1.11270
G1 X3.256 Y27.656 E1.12641
G1 X3.069 Y27.189 E1.14006
G1 X2.926 Y26.739 E1.15372
G1 X2.829 Y26.304 E1.16743
G1 X2.788 Y25.974 E1.17860
G1 X27.218 Y45.518 E2.08850
G1 X27.178 Y45.784 E2.09966
G1 X27.081 Y46.066 E2.11336
G1 X26.937 Y46.284 E2.12704
G1 X26.750 Y46.456 E2.14071
G1 X26.523 Y46.56 E2.15438
G1 X26.259 Y46.599 E2.16805
G1 X25.963 Y46.585 E2.18175
G1 X25.641 Y46.506 E2.19541
G1 X25.298 Y46.358 E2.20911
G1 X24.943 Y46.163 E2.22271
G1 X24.470 Y45.825 E2.24037
G1 X18.145 Y40.761 E2.47595
G1 X18.145 Y39.761 E2.51319
G1 X16.640 Y38.561 E2.56925
G1 X16.640 Y39.561 E2.60650
G1 X12.339 Y36.113 E2.76672
M106 S255
G1 X12.127 Y35.945 E2.78194 F299.683
G1 X12.129 Y35.445 E2.81794
M106 S255
G1 X12.130 Y34.953 E2.83656 F579.313
G1 X9.772 Y33.065 E2.92438
G1 X9.197 Y32.601 F5400.000
G1 X10.296 Y31.732 F5400.000
G1 X10.296 Y27.732 E3.18745 F328.087
G1 X10.234 Y27.434 E3.20439
G1 X10.296 Y27.232 E3.22133
G1 X10.296 Y22.732 E3.51728
G1 X10.234 Y22.434 E3.53422
G1 X10.296 Y22.232 E3.55116
G1 X10.296 Y17.733 E3.84711
G1 X10.234 Y17.434 E3.86406
G1 X10.296 Y17.232 E3.88100
G1 X10.296 Y12.732 E4.17695
G1 X10.234 Y12.434 E4.19389
G1 X10.296 Y12.232 E4.21083
G1 X10.296 Y11.732 E4.24371
G1 X10.548 Y12.682 F5400.000
G1 X6.527 Y9.467 E4.50817 F328.087
G92 E0
G1 X3.798 Y27.532 F5400.000
G1 X3.798 Y27.532 F5400.000
G1 X4.526 Y12.866 F5400.000
G1 X10.548 Y17.682 E0.39606 F328.087
G92 E0
G1 X10.548 Y22.682 F5400.000
G1 X4.526 Y17.866 E0.39606 F328.087
G92 E0
G1 X3.798 Y27.532 F5400.000
G1 X3.798 Y27.532 F5400.000
G1 X6.527 Y24.467 F5400.000
G1 X10.548 Y27.682 E0.26446 F328.087
G92 E0
G1 X15.891 Y37.212 F5400.000
G1 X18.895 Y39.612 F5400.000
G1 X19.963 Y35.989 F5400.000
G1 X19.711 Y34.768 E0.06914 F328.087
G1 X19.711 Y30.268 E0.36509
G1 X19.773 Y30.066 E0.38203
G1 X25.482 Y34.634 E0.75755
G92 E0
G1 X26.208 Y45.46 F5400.000
G1 X26.208 Y45.46 F5400.000
G1 X25.482 Y29.635 F5400.000
G1 X19.773 Y25.066 E0.37552 F328.087
G1 X19.711 Y25.269 E0.39246
G1 X19.711 Y29.768 E0.68841
G1 X19.963 Y30.989 E0.75755
G92 E0
G1 X19.963 Y25.989 F5400.000
G1 X19.711 Y24.768 E0.06914 F328.087
G1 X19.711 Y20.268 E0.36509
G1 X19.773 Y20.066 E0.38203
G1 X23.480 Y23.034 E0.62586
G92 E0
G1 X18.895 Y39.612 F5400.000
G1 X18.895 Y39.612 F5400.000
G1 X19.963 Y20.989 F5400.000
G1 X19.711 Y19.768 E0.06914 F328.087
G1 X19.711 Y19.268 E0.10203
G92 E0
G1 X18.895 Y39.612 F5400.000
G1 X18.895 Y39.612 F5400.000
G1 X23.480 Y38.034 F5400.000
G1 X19.773 Y35.066 E0.24383 F328.087
G1 X19.711 Y35.268 E0.26077
G1 X19.711 Y39.268 E0.52384
G1 X19.234 Y40.647 F5400.000
G1 X19.132 Y40.465 E0.52562 F1750.400
G1 X19.132 Y40.251 E0.52826
G1 X19.448 Y40.815 E0.53377
G1 X19.662 Y40.991 E0.53641
G1 X19.154 Y40.075 E0.54527
G1 X19.350 Y40.217 E0.54769
G1 X19.876 Y41.159 E0.55687
G1 X20.090 Y41.335 E0.55951
G1 X19.564 Y40.385 E0.56868
G1 X19.778 Y40.553 E0.57132
G1 X20.304 Y41.503 E0.58049
G1 X20.518 Y41.671 E0.58313
G1 X19.992 Y40.729 E0.59230
G1 X20.206 Y40.897 E0.59494
G1 X20.732 Y41.847 E0.60411
G1 X20.946 Y42.015 E0.60675
G1 X20.419 Y41.065 E0.61592
G1 X20.633 Y41.241 E0.61856
G1 X21.160 Y42.191 E0.62774
G1 X21.374 Y42.359 E0.63037
G1 X20.847 Y41.409 E0.63955
G1 X21.061 Y41.585 E0.64218
G1 X21.588 Y42.527 E0.65136
G1 X21.801 Y42.703 E0.65400
G1 X21.275 Y41.753 E0.66317
G1 X21.489 Y41.921 E0.66581
G1 X22.015 Y42.871 E0.67498
G1 X22.229 Y43.039 E0.67762
G1 X21.703 Y42.097 E0.68679
G1 X21.917 Y42.265 E0.68943
G1 X22.443 Y43.215 E0.69860
G1 X22.657 Y43.383 E0.70124
G1 X22.131 Y42.441 E0.71041
G1 X22.345 Y42.609 E0.71305
G1 X22.871 Y43.559 E0.72223
G1 X23.085 Y43.727 E0.72486
G1 X22.559 Y42.777 E0.73404
G1 X22.773 Y42.953 E0.73667
G1 X23.299 Y43.895 E0.74585
G1 X23.513 Y44.071 E0.74849
G1 X22.987 Y43.121 E0.75766
G1 X23.201 Y43.297 E0.76030
G1 X23.727 Y44.239 E0.76947
G1 X23.941 Y44.415 E0.77211
G1 X23.415 Y43.465 E0.78128
G1 X23.629 Y43.633 E0.78392
G1 X24.155 Y44.583 E0.79309
G1 X24.369 Y44.751 E0.79573
G1 X23.842 Y43.809 E0.80490
G1 X24.056 Y43.977 E0.80754
G1 X24.573 Y44.91 E0.81655
G1 X24.771 Y45.054 E0.81900
G1 X24.270 Y44.153 E0.82773
G1 X24.484 Y44.321 E0.83037
G1 X24.949 Y45.154 E0.83848
G1 X25.112 Y45.239 E0.84058
G1 X24.698 Y44.489 E0.84779
G1 X24.912 Y44.665 E0.85043
G1 X25.264 Y45.297 E0.85656
G1 X25.402 Y45.333 E0.85851
G1 X25.126 Y44.833 E0.86332
G1 X25.340 Y45.009 E0.86595
G1 X25.529 Y45.342 E0.86926
G1 X25.554 Y45.177 E0.87161
G1 X25.636 Y45.323 E0.87305
G1 X25.636 Y45.323 F5400.000
G1 X25.554 Y45.177 E0.87448 F1750.386
G1 X25.529 Y45.342 E0.87684
G1 X25.340 Y45.009 E0.88014
G1 X25.126 Y44.833 E0.88278
G1 X25.402 Y45.333 E0.88759
G1 X25.264 Y45.297 E0.88953
G1 X24.912 Y44.665 E0.89566
G1 X24.698 Y44.489 E0.89830
G1 X25.112 Y45.239 E0.90551
G1 X24.949 Y45.154 E0.90762
G1 X24.484 Y44.321 E0.91572
G1 X24.270 Y44.153 E0.91836
G1 X24.771 Y45.054 E0.92709
G1 X24.573 Y44.91 E0.92954
G1 X24.056 Y43.977 E0.93855
G1 X23.842 Y43.809 E0.94119
G1 X24.369 Y44.751 E0.95036
G1 X24.155 Y44.583 E0.95300
G1 X23.629 Y43.633 E0.96218
G1 X23.415 Y43.465 E0.96481
G1 X23.941 Y44.415 E0.97399
G1 X23.727 Y44.239 E0.97662
G1 X23.201 Y43.297 E0.98580
G1 X22.987 Y43.121 E0.98844
G1 X23.513 Y44.071 E0.99761
G1 X23.299 Y43.895 E1.00025
G1 X22.773 Y42.953 E1.00942
G1 X22.559 Y42.777 E1.01206
G1 X23.085 Y43.727 E1.02123
G1 X22.871 Y43.559 E1.02387
G1 X22.345 Y42.609 E1.03305
G1 X22.131 Y42.441 E1.03568
G1 X22.657 Y43.383 E1.04486
G1 X22.443 Y43.215 E1.04750
G1 X21.917 Y42.265 E1.05667
G1 X21.703 Y42.097 E1.05931
G1 X22.229 Y43.039 E1.06848
G1 X22.015 Y42.871 E1.07112
G1 X21.489 Y41.921 E1.08029
G1 X21.275 Y41.753 E1.08293
G1 X21.801 Y42.703 E1.09210
G1 X21.588 Y42.527 E1.09474
G1 X21.061 Y41.585 E1.10392
G1 X20.847 Y41.409 E1.10655
G1 X21.374 Y42.359 E1.11573
G1 X21.160 Y42.191 E1.11837
G1 X20.633 Y41.241 E1.12754
G1 X20.419 Y41.065 E1.13018
G1 X20.946 Y42.015 E1.13935
G1 X20.732 Y41.847 E1.14199
G1 X20.206 Y40.897 E1.15116
G1 X19.992 Y40.729 E1.15380
G1 X20.518 Y41.671 E1.16297
G1 X20.304 Y41.503 E1.16561
G1 X19.778 Y40.553 E1.17479
G1 X19.564 Y40.385 E1.17742
G1 X20.090 Y41.335 E1.18660
G1 X19.876 Y41.159 E1.18924
G1 X19.350 Y40.217 E1.19841
G1 X19.154 Y40.075 E1.20084
G1 X19.662 Y40.991 E1.20970
G1 X19.448 Y40.815 E1.21233
G1 X19.132 Y40.251 E1.21785
G1 X19.132 Y40.465 E1.22048
G1 X19.234 Y40.647 E1.22227
G1 X15.654 Y37.359 F5400.000
G1 X15.552 Y37.177 E1.22410 F1702.817
G1 X15.332 Y37.001 E1.22689
G1 X15.654 Y37.579 E1.23267
G1 X15.626 Y37.747 E1.23512
G1 X15.112 Y36.825 E1.24434
G1 X14.892 Y36.649 E1.24713
G1 X15.418 Y37.591 E1.25656
G1 X15.198 Y37.415 E1.25934
G1 X14.672 Y36.473 E1.26877
G1 X14.452 Y36.297 E1.27156
G1 X14.978 Y37.239 E1.28099
G1 X14.759 Y37.063 E1.28378
G1 X14.232 Y36.121 E1.29321
G1 X14.012 Y35.945 E1.29600
G1 X14.539 Y36.887 E1.30543
G1 X14.319 Y36.711 E1.30821
G1 X13.792 Y35.769 E1.31764
G1 X13.573 Y35.593 E1.32043
G1 X14.099 Y36.535 E1.32986
G1 X13.879 Y36.359 E1.33265
G1 X13.353 Y35.417 E1.34208
G1 X13.145 Y35.262 E1.34471
G1 X13.659 Y36.183 E1.35391
G1 X13.439 Y36.007 E1.35670
G1 X13.117 Y35.43 E1.36246
G1 X13.117 Y35.649 E1.36524
G1 X13.219 Y35.831 E1.36708
G1 X13.219 Y35.831 F5400.000
G1 X13.117 Y35.649 E1.36891 F1702.841
G1 X13.117 Y35.43 E1.37169
G1 X13.439 Y36.007 E1.37745
G1 X13.659 Y36.183 E1.38024
G1 X13.145 Y35.262 E1.38944
G1 X13.353 Y35.417 E1.39207
G1 X13.879 Y36.359 E1.40150
G1 X14.099 Y36.535 E1.40429
G1 X13.573 Y35.593 E1.41372
G1 X13.792 Y35.769 E1.41650
G1 X14.319 Y36.711 E1.42594
G1 X14.539 Y36.887 E1.42872
G1 X14.012 Y35.945 E1.43815
G1 X14.232 Y36.121 E1.44094
G1 X14.759 Y37.063 E1.45037
G1 X14.978 Y37.239 E1.45316
G1 X14.452 Y36.297 E1.46259
G1 X14.672 Y36.473 E1.46537
G1 X15.198 Y37.415 E1.47480
G1 X15.418 Y37.591 E1.47759
G1 X14.892 Y36.649 E1.48702
G1 X15.112 Y36.825 E1.48981
G1 X15.626 Y37.747 E1.49902
G1 X15.654 Y37.579 E1.50148
G1 X15.332 Y37.001 E1.50725
G1 X15.552 Y37.177 E1.51004
G1 X15.654 Y37.359 E1.51188
G1 X8.711 Y31.807 F5400.000
G1 X8.609 Y31.617 E1.51365 F1758.629
G1 X8.396 Y31.449 E1.51627
G1 X8.711 Y32.02 E1.52174
G1 X8.690 Y32.196 E1.52410
G1 X8.183 Y31.281 E1.53290
G1 X7.970 Y31.113 E1.53552
G1 X8.496 Y32.055 E1.54464
G1 X8.283 Y31.887 E1.54726
G1 X7.757 Y30.937 E1.55638
G1 X7.544 Y30.769 E1.55899
G1 X8.070 Y31.719 E1.56812
G1 X7.857 Y31.543 E1.57073
G1 X7.331 Y30.601 E1.57985
G1 X7.118 Y30.425 E1.58247
G1 X7.644 Y31.375 E1.59159
G1 X7.431 Y31.207 E1.59420
G1 X6.905 Y30.257 E1.60332
G1 X6.692 Y30.089 E1.60594
G1 X7.218 Y31.031 E1.61506
G1 X7.005 Y30.862 E1.61767
G1 X6.479 Y29.913 E1.62679
G1 X6.266 Y29.745 E1.62940
G1 X6.792 Y30.694 E1.63852
G1 X6.579 Y30.518 E1.64113
G1 X6.054 Y29.577 E1.65025
G1 X5.841 Y29.409 E1.65287
G1 X6.366 Y30.35 E1.66198
G1 X6.153 Y30.182 E1.66460
G1 X5.628 Y29.233 E1.67371
G1 X5.415 Y29.065 E1.67633
G1 X5.940 Y30.014 E1.68544
G1 X5.727 Y29.838 E1.68806
G1 X5.202 Y28.897 E1.69717
G1 X4.989 Y28.721 E1.69978
G1 X5.514 Y29.67 E1.70889
G1 X5.277 Y29.454 E1.71181
G1 X4.776 Y28.553 E1.72051
G1 X4.563 Y28.385 E1.72312
G1 X4.989 Y29.147 E1.73052
G1 X4.542 Y28.561 F5400.000
G1 X4.370 Y28.253 E1.73351 F1758.629
G1 X4.370 Y28.253 F5400.000
G1 X4.542 Y28.561 E1.73650 F1758.644
G1 X4.989 Y29.147 F5400.000
G1 X4.563 Y28.385 E1.74389 F1758.644
G1 X4.776 Y28.553 E1.74651
G1 X5.277 Y29.454 E1.75520
G1 X5.514 Y29.67 E1.75812
G1 X4.989 Y28.721 E1.76723
G1 X5.202 Y28.897 E1.76984
G1 X5.727 Y29.838 E1.77895
G1 X5.940 Y30.014 E1.78157
G1 X5.415 Y29.065 E1.79068
G1 X5.628 Y29.233 E1.79330
G1 X6.153 Y30.182 E1.80241
G1 X6.366 Y30.35 E1.80503
G1 X5.841 Y29.409 E1.81414
G1 X6.054 Y29.577 E1.81675
G1 X6.579 Y30.518 E1.82587
G1 X6.792 Y30.694 E1.82849
G1 X6.266 Y29.745 E1.83760
G1 X6.479 Y29.913 E1.84022
G1 X7.005 Y30.862 E1.84934
G1 X7.218 Y31.031 E1.85195
G1 X6.692 Y30.089 E1.86107
G1 X6.905 Y30.257 E1.86368
G1 X7.431 Y31.207 E1.87280
G1 X7.644 Y31.375 E1.87542
G1 X7.118 Y30.425 E1.88454
G1 X7.331 Y30.601 E1.88715
G1 X7.857 Y31.543 E1.89628
G1 X8.070 Y31.719 E1.89889
G1 X7.544 Y30.769 E1.90801
G1 X7.757 Y30.937 E1.91062
G1 X8.283 Y31.887 E1.91975
G1 X8.496 Y32.055 E1.92236
G1 X7.970 Y31.113 E1.93149
G1 X8.183 Y31.281 E1.93410
G1 X8.690 Y32.196 E1.94290
G1 X8.711 Y32.02 E1.94527
G1 X8.396 Y31.449 E1.95074
G1 X8.609 Y31.617 E1.95335
G1 X8.711 Y31.807 E1.95513
G1 Z1.400 F5400.000
G28 X 
G28 Y
G92 E0
G1 X11.835 Y35.081 F5400.000
G1 X11.835 Y33.847 E0.08121 F328.087
G1 X16.008 Y37.183 E0.35571
G1 X16.008 Y38.417 E0.43692
G1 X11.910 Y35.145 E0.70649
G92 E0
G1 X11.952 Y35.06 F5400.000
G1 X11.952 Y35.06 F5400.000
G1 X9.065 Y32.865 F5400.000
G1 X5.485 Y30.0 E0.23550 F328.087
G1 X5.186 Y29.731 E0.25522
G1 X4.909 Y29.441 E0.27393
G1 X4.644 Y29.131 E0.29262
G1 X4.394 Y28.795 E0.31134
G1 X4.165 Y28.442 E0.33005
G1 X3.961 Y28.086 E0.34865
G1 X3.537 Y27.207 E0.39359
G1 X9.065 Y31.631 E0.75720
G1 X9.065 Y32.79 E0.83346
G92 E0
G1 X11.952 Y35.06 F5400.000
G1 X12.452 Y34.96 F5400.000
G1 X15.391 Y37.312 F5400.000
G1 X15.891 Y38.212 F5400.000
G1 X18.778 Y40.633 F5400.000
G1 X18.778 Y39.399 E0.08120 F328.087
G1 X26.468 Y45.551 E0.58701
G1 X26.046 Y45.75 E0.63189
G1 X25.842 Y45.786 E0.65048
G1 X25.611 Y45.771 E0.66927
G1 X25.363 Y45.707 E0.68791
G1 X25.097 Y45.593 E0.70662
G1 X24.820 Y45.443 E0.72536
G1 X24.522 Y45.232 E0.74506
G1 X18.853 Y40.697 E1.11790
G1 X18.145 Y39.761 F5400.000
G1 X16.640 Y38.561 E1.17396 F579.313
G1 X16.640 Y39.561 E1.21121
G1 X11.628 Y35.545 E1.39789
M106 S255
G1 X11.203 Y35.209 E1.42855 F299.683
G1 X11.203 Y34.709 E1.46455
M106 S255
G1 X11.203 Y34.209 E1.48317 F579.313
G1 X9.697 Y33.001 E1.53922
G1 X9.697 Y34.001 E1.57647
G1 X5.453 Y30.609 E1.73456
G1 X5.081 Y30.275 E1.74847
G1 X4.722 Y29.902 E1.76221
G1 X4.378 Y29.49 E1.77595
G1 X4.054 Y29.057 E1.78969
G1 X3.757 Y28.599 E1.80343
G1 X3.492 Y28.136 E1.81712
G1 X3.263 Y27.663 E1.83084
G1 X3.075 Y27.196 E1.84451
G1 X2.932 Y26.747 E1.85817
G1 X2.836 Y26.312 E1.87187
G1 X2.795 Y25.982 E1.88304
G1 X27.211 Y45.518 E2.79244
G1 X27.171 Y45.784 E2.80361
G1 X27.074 Y46.058 E2.81731
G1 X26.931 Y46.284 E2.83098
G1 X26.743 Y46.447 E2.84465
G1 X26.515 Y46.552 E2.85835
G1 X26.249 Y46.591 E2.87205
G1 X25.952 Y46.577 E2.88580
G1 X25.629 Y46.49 E2.89951
G1 X25.284 Y46.35 E2.91327
G1 X24.925 Y46.147 E2.92702
G1 X24.553 Y45.889 E2.94092
G1 X18.145 Y40.761 E3.17959
G1 X18.145 Y39.836 E3.21404
G1 X18.145 Y39.261 F5400.000
G1 X10.325 Y31.756 F5400.000
G1 X10.325 Y27.756 E3.47711 F328.087
G1 X10.264 Y27.458 E3.49403
G1 X10.325 Y27.256 E3.51095
G1 X10.325 Y22.756 E3.80690
G1 X10.264 Y22.458 E3.82383
G1 X10.325 Y22.256 E3.84075
G1 X10.325 Y17.757 E4.13670
G1 X10.264 Y17.458 E4.15363
G1 X10.325 Y17.256 E4.17055
G1 X10.325 Y12.756 E4.46650
G1 X10.264 Y12.458 E4.48343
G1 X10.325 Y12.256 E4.50035
G1 X10.325 Y11.756 E4.53324
G1 X10.581 Y12.714 F5400.000
G1 X6.545 Y9.482 E4.79865 F328.087
G92 E0
G1 X3.806 Y27.54 F5400.000
G1 X3.806 Y27.54 F5400.000
G1 X4.540 Y12.882 F5400.000
G1 X10.581 Y17.714 E0.39727 F328.087
G92 E0
G1 X10.581 Y22.714 F5400.000
G1 X4.540 Y17.882 E0.39727 F328.087
G92 E0
G1 X3.806 Y27.54 F5400.000
G1 X3.806 Y27.54 F5400.000
G1 X6.545 Y24.482 F5400.000
G1 X10.581 Y27.714 E0.26542 F328.087
G92 E0
G1 X15.891 Y37.212 F5400.000
G1 X18.895 Y39.612 F5400.000
G1 X19.932 Y35.97 F5400.000
G1 X19.679 Y34.736 E0.06950 F328.087
G1 X19.679 Y30.236 E0.36545
G1 X19.741 Y30.042 E0.38238
G1 X25.471 Y34.626 E0.75926
G92 E0
G1 X26.200 Y45.46 F5400.000
G1 X26.200 Y45.46 F5400.000
G1 X25.471 Y29.626 F5400.000
G1 X19.741 Y25.042 E0.37688 F328.087
G1 X19.679 Y25.237 E0.39381
G1 X19.679 Y29.736 E0.68976
G1 X19.932 Y30.97 E0.75926
G92 E0
G1 X19.932 Y25.97 F5400.000
G1 X19.679 Y24.736 E0.06950 F328.087
G1 X19.679 Y20.236 E0.36545
G1 X19.741 Y20.042 E0.38238
G1 X23.462 Y23.018 E0.62710
G92 E0
G1 X18.895 Y39.612 F5400.000
G1 X18.895 Y39.612 F5400.000
G1 X19.932 Y20.97 F5400.000
G1 X19.679 Y19.736 E0.06950 F328.087
G1 X19.679 Y19.236 E0.10238
G92 E0
G1 X18.895 Y39.612 F5400.000
G1 X18.895 Y39.612 F5400.000
G1 X23.462 Y38.018 F5400.000
G1 X19.741 Y35.042 E0.24472 F328.087
G1 X19.679 Y35.236 E0.26165
G1 X19.679 Y39.236 E0.52472
G1 X19.234 Y40.121 F5400.000
G1 X19.132 Y40.143 E0.52650 F1751.926
G1 X19.132 Y40.357 E0.52913
G1 X19.448 Y40.289 E0.53464
G1 X19.662 Y40.465 E0.53727
G1 X19.154 Y40.565 E0.54612
G1 X19.349 Y40.735 E0.54854
G1 X19.875 Y40.633 E0.55770
G1 X20.089 Y40.801 E0.56034
G1 X19.563 Y40.911 E0.56950
G1 X19.777 Y41.079 E0.57213
G1 X20.303 Y40.977 E0.58129
G1 X20.517 Y41.145 E0.58393
G1 X19.991 Y41.255 E0.59309
G1 X20.205 Y41.423 E0.59572
G1 X20.730 Y41.321 E0.60488
G1 X20.944 Y41.489 E0.60751
G1 X20.418 Y41.591 E0.61667
G1 X20.632 Y41.767 E0.61930
G1 X21.158 Y41.657 E0.62846
G1 X21.372 Y41.833 E0.63110
G1 X20.846 Y41.935 E0.64025
G1 X21.060 Y42.111 E0.64289
G1 X21.585 Y42.001 E0.65205
G1 X21.799 Y42.169 E0.65468
G1 X21.273 Y42.279 E0.66384
G1 X21.487 Y42.447 E0.66647
G1 X22.013 Y42.345 E0.67563
G1 X22.227 Y42.513 E0.67826
G1 X21.701 Y42.623 E0.68741
G1 X21.915 Y42.791 E0.69005
G1 X22.440 Y42.689 E0.69920
G1 X22.654 Y42.857 E0.70184
G1 X22.129 Y42.958 E0.71099
G1 X22.342 Y43.134 E0.71362
G1 X22.868 Y43.025 E0.72278
G1 X23.082 Y43.201 E0.72541
G1 X22.556 Y43.302 E0.73457
G1 X22.770 Y43.478 E0.73720
G1 X23.295 Y43.369 E0.74635
G1 X23.509 Y43.537 E0.74899
G1 X22.984 Y43.646 E0.75814
G1 X23.198 Y43.814 E0.76077
G1 X23.723 Y43.713 E0.76992
G1 X23.937 Y43.881 E0.77256
G1 X23.411 Y43.99 E0.78171
G1 X23.625 Y44.158 E0.78434
G1 X24.150 Y44.057 E0.79349
G1 X24.364 Y44.225 E0.79613
G1 X23.839 Y44.326 E0.80528
G1 X24.053 Y44.502 E0.80791
G1 X24.578 Y44.393 E0.81706
G1 X24.792 Y44.569 E0.81969
G1 X24.266 Y44.67 E0.82884
G1 X24.481 Y44.845 E0.83149
G1 X25.005 Y44.737 E0.84062
G1 X25.219 Y44.905 E0.84325
G1 X24.719 Y45.005 E0.85197
G1 X25.009 Y45.161 E0.85566
G1 X25.433 Y45.081 E0.86305
G1 X25.627 Y45.253 E0.86545
G1 X25.458 Y45.286 E0.86839
G1 X25.458 Y45.286 F5400.000
G1 X25.627 Y45.253 E0.87133 F1751.935
G1 X25.433 Y45.081 E0.87373
G1 X25.009 Y45.161 E0.88112
G1 X24.719 Y45.005 E0.88481
G1 X25.219 Y44.905 E0.89353
G1 X25.005 Y44.737 E0.89616
G1 X24.481 Y44.845 E0.90529
G1 X24.266 Y44.67 E0.90794
G1 X24.792 Y44.569 E0.91709
G1 X24.578 Y44.393 E0.91972
G1 X24.053 Y44.502 E0.92887
G1 X23.839 Y44.326 E0.93150
G1 X24.364 Y44.225 E0.94065
G1 X24.150 Y44.057 E0.94329
G1 X23.625 Y44.158 E0.95244
G1 X23.411 Y43.99 E0.95507
G1 X23.937 Y43.881 E0.96422
G1 X23.723 Y43.713 E0.96686
G1 X23.198 Y43.814 E0.97601
G1 X22.984 Y43.646 E0.97864
G1 X23.509 Y43.537 E0.98779
G1 X23.295 Y43.369 E0.99043
G1 X22.770 Y43.478 E0.99958
G1 X22.556 Y43.302 E1.00221
G1 X23.082 Y43.201 E1.01137
G1 X22.868 Y43.025 E1.01400
G1 X22.342 Y43.134 E1.02315
G1 X22.129 Y42.958 E1.02579
G1 X22.654 Y42.857 E1.03494
G1 X22.440 Y42.689 E1.03757
G1 X21.915 Y42.791 E1.04673
G1 X21.701 Y42.623 E1.04936
G1 X22.227 Y42.513 E1.05852
G1 X22.013 Y42.345 E1.06115
G1 X21.487 Y42.447 E1.07031
G1 X21.273 Y42.279 E1.07294
G1 X21.799 Y42.169 E1.08210
G1 X21.585 Y42.001 E1.08473
G1 X21.060 Y42.111 E1.09389
G1 X20.846 Y41.935 E1.09652
G1 X21.372 Y41.833 E1.10568
G1 X21.158 Y41.657 E1.10831
G1 X20.632 Y41.767 E1.11747
G1 X20.418 Y41.591 E1.12010
G1 X20.944 Y41.489 E1.12926
G1 X20.730 Y41.321 E1.13189
G1 X20.205 Y41.423 E1.14105
G1 X19.991 Y41.255 E1.14369
G1 X20.517 Y41.145 E1.15285
G1 X20.303 Y40.977 E1.15548
G1 X19.777 Y41.079 E1.16464
G1 X19.563 Y40.911 E1.16727
G1 X20.089 Y40.801 E1.17644
G1 X19.875 Y40.633 E1.17907
G1 X19.349 Y40.735 E1.18823
G1 X19.154 Y40.565 E1.19065
G1 X19.662 Y40.465 E1.19950
G1 X19.448 Y40.289 E1.20213
G1 X19.132 Y40.357 E1.20764
G1 X19.132 Y40.143 E1.21027
G1 X19.234 Y40.121 E1.21205
G1 X15.552 Y37.703 F5400.000
G1 X15.654 Y37.681 E1.21381 F1780.035
G1 X15.654 Y37.47 E1.21636
G1 X15.341 Y37.535 E1.22172
G1 X15.131 Y37.367 E1.22427
G1 X15.636 Y37.262 E1.23292
G1 X15.447 Y37.089 E1.23523
G1 X14.921 Y37.199 E1.24425
G1 X14.710 Y37.031 E1.24680
G1 X15.237 Y36.921 E1.25582
G1 X15.026 Y36.753 E1.25837
G1 X14.500 Y36.863 E1.26739
G1 X14.289 Y36.687 E1.26994
G1 X14.816 Y36.585 E1.27896
G1 X14.605 Y36.417 E1.28151
G1 X14.079 Y36.519 E1.29053
G1 X13.869 Y36.351 E1.29308
G1 X14.395 Y36.249 E1.30211
G1 X14.185 Y36.081 E1.30466
G1 X13.658 Y36.183 E1.31368
G1 X13.448 Y36.015 E1.31623
G1 X13.974 Y35.913 E1.32525
G1 X13.764 Y35.745 E1.32780
G1 X13.238 Y35.847 E1.33682
G1 X13.027 Y35.679 E1.33937
G1 X13.554 Y35.577 E1.34839
G1 X13.343 Y35.409 E1.35094
G1 X12.817 Y35.511 E1.35996
G1 X12.607 Y35.343 E1.36251
G1 X13.133 Y35.241 E1.37154
G1 X12.922 Y35.073 E1.37409
G1 X12.396 Y35.175 E1.38311
G1 X12.207 Y35.002 E1.38541
G1 X12.712 Y34.905 E1.39406
G1 X12.502 Y34.737 E1.39661
G1 X12.189 Y34.794 E1.40197
G1 X12.189 Y34.583 E1.40452
G1 X12.291 Y34.569 E1.40628
G1 X12.291 Y34.569 F5400.000
G1 X12.189 Y34.583 E1.40803 F1780.054
G1 X12.189 Y34.794 E1.41058
G1 X12.502 Y34.737 E1.41595
G1 X12.712 Y34.905 E1.41850
G1 X12.207 Y35.002 E1.42715
G1 X12.396 Y35.175 E1.42945
G1 X12.922 Y35.073 E1.43847
G1 X13.133 Y35.241 E1.44102
G1 X12.607 Y35.343 E1.45004
G1 X12.817 Y35.511 E1.45259
G1 X13.343 Y35.409 E1.46161
G1 X13.554 Y35.577 E1.46416
G1 X13.027 Y35.679 E1.47319
G1 X13.238 Y35.847 E1.47574
G1 X13.764 Y35.745 E1.48476
G1 X13.974 Y35.913 E1.48731
G1 X13.448 Y36.015 E1.49633
G1 X13.658 Y36.183 E1.49888
G1 X14.185 Y36.081 E1.50790
G1 X14.395 Y36.249 E1.51045
G1 X13.869 Y36.351 E1.51947
G1 X14.079 Y36.519 E1.52202
G1 X14.605 Y36.417 E1.53104
G1 X14.816 Y36.585 E1.53359
G1 X14.289 Y36.687 E1.54261
G1 X14.500 Y36.863 E1.54516
G1 X15.026 Y36.753 E1.55418
G1 X15.236 Y36.921 E1.55673
G1 X14.710 Y37.031 E1.56576
G1 X14.921 Y37.199 E1.56831
G1 X15.447 Y37.089 E1.57733
G1 X15.636 Y37.262 E1.57963
G1 X15.131 Y37.367 E1.58828
G1 X15.341 Y37.535 E1.59083
G1 X15.654 Y37.47 E1.59619
G1 X15.654 Y37.681 E1.59874
G1 X15.552 Y37.703 E1.60050
G1 X8.609 Y32.143 F5400.000
G1 X8.711 Y32.128 E1.60227 F1763.073
G1 X8.711 Y31.916 E1.60487
G1 X8.396 Y31.975 E1.61032
G1 X8.184 Y31.807 E1.61292
G1 X8.691 Y31.708 E1.62168
G1 X8.498 Y31.529 E1.62406
G1 X7.972 Y31.639 E1.63316
G1 X7.759 Y31.463 E1.63576
G1 X8.285 Y31.361 E1.64486
G1 X8.073 Y31.193 E1.64746
G1 X7.547 Y31.295 E1.65656
G1 X7.335 Y31.127 E1.65916
G1 X7.860 Y31.025 E1.66825
G1 X7.648 Y30.849 E1.67085
G1 X7.122 Y30.959 E1.67995
G1 X6.910 Y30.79 E1.68255
G1 X7.436 Y30.681 E1.69165
G1 X7.223 Y30.513 E1.69425
G1 X6.698 Y30.614 E1.70334
G1 X6.485 Y30.446 E1.70594
G1 X7.011 Y30.345 E1.71504
G1 X6.798 Y30.169 E1.71764
G1 X6.273 Y30.278 E1.72673
G1 X6.061 Y30.11 E1.72933
G1 X6.586 Y30.001 E1.73842
G1 X6.374 Y29.833 E1.74102
G1 X5.848 Y29.934 E1.75012
G1 X5.636 Y29.766 E1.75271
G1 X6.161 Y29.665 E1.76181
G1 X5.949 Y29.489 E1.76441
G1 X5.428 Y29.594 E1.77342
G1 X5.235 Y29.422 E1.77579
G1 X5.736 Y29.321 E1.78448
G1 X5.524 Y29.153 E1.78707
G1 X5.061 Y29.247 E1.79508
G1 X4.901 Y29.068 E1.79715
G1 X5.312 Y28.985 E1.80426
G1 X5.099 Y28.809 E1.80686
G1 X4.750 Y28.886 E1.81290
G1 X4.613 Y28.699 E1.81482
G1 X4.887 Y28.641 E1.81956
G1 X4.674 Y28.473 E1.82216
G1 X4.486 Y28.509 E1.82542
G1 X4.380 Y28.323 E1.82726
G1 X4.462 Y28.305 E1.82869
G1 X4.462 Y28.305 F5400.000
G1 X4.380 Y28.323 E1.83011 F1763.094
G1 X4.486 Y28.509 E1.83195
G1 X4.674 Y28.473 E1.83522
G1 X4.887 Y28.641 E1.83781
G1 X4.613 Y28.699 E1.84256
G1 X4.750 Y28.886 E1.84447
G1 X5.099 Y28.809 E1.85052
G1 X5.312 Y28.985 E1.85312
G1 X4.901 Y29.068 E1.86023
G1 X5.061 Y29.247 E1.86229
G1 X5.524 Y29.153 E1.87030
G1 X5.736 Y29.321 E1.87290
G1 X5.235 Y29.422 E1.88158
G1 X5.428 Y29.594 E1.88395
G1 X5.949 Y29.489 E1.89297
G1 X6.161 Y29.665 E1.89557
G1 X5.636 Y29.766 E1.90466
G1 X5.848 Y29.934 E1.90726
G1 X6.374 Y29.833 E1.91635
G1 X6.586 Y30.001 E1.91895
G1 X6.061 Y30.11 E1.92804
G1 X6.273 Y30.278 E1.93064
G1 X6.798 Y30.169 E1.93974
G1 X7.011 Y30.345 E1.94233
G1 X6.485 Y30.446 E1.95143
G1 X6.698 Y30.614 E1.95403
G1 X7.223 Y30.513 E1.96312
G1 X7.436 Y30.681 E1.96572
G1 X6.910 Y30.79 E1.97482
G1 X7.122 Y30.959 E1.97742
G1 X7.648 Y30.849 E1.98652
G1 X7.860 Y31.025 E1.98911
G1 X7.335 Y31.127 E1.99821
G1 X7.547 Y31.295 E2.00081
G1 X8.073 Y31.193 E2.00991
G1 X8.285 Y31.361 E2.01251
G1 X7.759 Y31.463 E2.02161
G1 X7.972 Y31.639 E2.02421
G1 X8.497 Y31.529 E2.03331
G1 X8.691 Y31.708 E2.03568
G1 X8.184 Y31.807 E2.04445
G1 X8.396 Y31.975 E2.04705
G1 X8.711 Y31.916 E2.05250
G1 X8.711 Y32.128 E2.05509
G1 X8.609 Y32.143 E2.05687
G1 Z1.600 F5400.000
G28 X 
G28 Y
G92 E0
G1 X21.838 Y43.081 F5400.000
G1 X21.838 Y41.847 E0.08121 F600.000
G1 X26.449 Y45.535 E0.38451
G1 X26.026 Y45.734 E0.42941
G1 X25.822 Y45.77 E0.44801
G1 X25.592 Y45.755 E0.46678
G1 X25.343 Y45.691 E0.48543
G1 X25.078 Y45.577 E0.50413
G1 X24.808 Y45.425 E0.52235
G1 X24.408 Y45.137 E0.54874
G1 X21.913 Y43.145 E0.71286
G92 E0
G1 X19.006 Y40.7 F5400.000
G1 X19.006 Y40.7 F5400.000
G1 X18.950 Y40.604 F5400.000
G1 X18.895 Y40.612 F5400.000
G1 X16.008 Y38.417 F5400.000
G1 X15.362 Y37.905 E0.04254 F600.000
G1 X15.362 Y36.671 E0.12375
G1 X16.008 Y37.183 E0.16629
G1 X16.008 Y38.342 E0.24257
G92 E0
G1 X15.479 Y37.876 F5400.000
G1 X15.479 Y37.876 F5400.000
G1 X12.647 Y35.729 F5400.000
G1 X11.835 Y35.081 E0.05346 F600.000
G1 X11.835 Y33.847 E0.13467
G1 X12.647 Y34.495 E0.18813
G1 X12.647 Y35.654 E0.26441
G92 E0
G1 X11.952 Y35.06 F5400.000
G1 X11.952 Y35.06 F5400.000
G1 X9.065 Y32.865 F5400.000
G1 X5.504 Y30.016 E0.23420 F600.000
G1 X5.206 Y29.747 E0.25393
G1 X4.929 Y29.457 E0.27263
G1 X4.664 Y29.147 E0.29132
G1 X4.414 Y28.811 E0.31002
G1 X4.185 Y28.458 E0.32876
G1 X3.981 Y28.102 E0.34736
G1 X3.557 Y27.223 E0.39229
G1 X9.065 Y31.631 E0.75459
G1 X9.065 Y32.79 E0.83085
G1 X9.697 Y33.001 F5400.000
G1 X9.697 Y34.001 E0.86810 F600.000
G1 X5.473 Y30.625 E1.02545
G1 X5.101 Y30.291 E1.03937
G1 X4.742 Y29.918 E1.05310
G1 X4.398 Y29.506 E1.06684
G1 X4.074 Y29.073 E1.08058
G1 X3.777 Y28.615 E1.09432
G1 X3.512 Y28.152 E1.10801
G1 X3.283 Y27.679 E1.12173
G1 X3.095 Y27.212 E1.13541
G1 X2.951 Y26.762 E1.14908
G1 X2.854 Y26.327 E1.16278
G1 X2.814 Y25.998 E1.17394
G1 X27.193 Y45.502 E2.08197
G1 X27.153 Y45.767 E2.09313
G1 X27.055 Y46.042 E2.10683
G1 X26.911 Y46.268 E2.12051
G1 X26.723 Y46.431 E2.13418
G1 X26.495 Y46.536 E2.14789
G1 X26.230 Y46.583 E2.16159
G1 X25.932 Y46.561 E2.17533
G1 X25.609 Y46.474 E2.18905
G1 X25.264 Y46.334 E2.20280
G1 X24.907 Y46.131 E2.21647
G1 X24.434 Y45.793 E2.23416
G1 X21.206 Y43.209 E2.35441
G1 X21.206 Y42.209 E2.39165
G1 X19.755 Y41.049 E2.44566
G1 X19.755 Y42.049 E2.48291
G1 X18.145 Y40.761 E2.54287
G1 X18.145 Y39.761 E2.58012
G1 X16.640 Y38.561 E2.63617
G1 X16.640 Y39.561 E2.67342
G1 X14.729 Y38.025 E2.74460
G1 X14.729 Y37.025 E2.78184
G1 X13.279 Y35.865 E2.83585
G1 X13.279 Y36.865 E2.87310
G1 X11.203 Y35.209 E2.95046
G1 X11.203 Y34.209 E2.98770
G1 X9.772 Y33.065 E3.04096
G1 X9.197 Y32.601 F5400.000
G92 E0
G1 X11.952 Y34.06 F5400.000
G1 X18.895 Y39.612 F5400.000
G1 X23.438 Y37.994 F5400.000
G1 X19.706 Y35.01 E0.24540 F600.000
G1 X19.645 Y35.212 E0.26233
G1 X19.645 Y39.212 E0.52539
G1 X19.901 Y35.967 F5400.000
G1 X19.645 Y34.712 E0.59625 F600.000
G1 X19.645 Y30.212 E0.89220
G1 X19.706 Y30.01 E0.90913
G1 X25.450 Y34.61 E1.28685
G92 E0
G1 X26.181 Y45.444 F5400.000
G1 X26.181 Y45.444 F5400.000
G1 X25.450 Y29.61 F5400.000
G1 X19.706 Y25.01 E0.37772 F600.000
G1 X19.645 Y25.213 E0.39465
G1 X19.645 Y29.712 E0.69060
G1 X19.901 Y30.967 E0.76145
G92 E0
G1 X19.901 Y25.967 F5400.000
G1 X19.645 Y24.712 E0.07086 F600.000
G1 X19.645 Y20.212 E0.36681
G1 X19.706 Y20.01 E0.38373
G1 X23.438 Y22.994 E0.62914
G92 E0
G1 X21.955 Y42.06 F5400.000
G1 X21.955 Y42.06 F5400.000
G1 X19.901 Y20.967 F5400.000
G1 X19.645 Y19.712 E0.07086 F600.000
G1 X19.645 Y19.212 E0.10374
G92 E0
G1 X15.479 Y36.876 F5400.000
G1 X12.530 Y34.524 F5400.000
G1 X10.617 Y12.738 F5400.000
G1 X6.569 Y9.498 E0.26627 F600.000
G92 E0
G1 X8.948 Y31.652 F5400.000
G1 X8.948 Y31.652 F5400.000
G1 X10.364 Y11.788 F5400.000
G1 X10.364 Y12.288 E0.03288 F600.000
G1 X10.302 Y12.49 E0.04982
G1 X10.364 Y12.788 E0.06675
G1 X10.364 Y17.288 E0.36270
G1 X10.302 Y17.49 E0.37964
G1 X10.364 Y17.789 E0.39657
G1 X10.364 Y22.288 E0.69252
G1 X10.302 Y22.49 E0.70946
G1 X10.364 Y22.788 E0.72639
G1 X10.364 Y27.288 E1.02234
G1 X10.302 Y27.49 E1.03928
G1 X10.364 Y27.788 E1.05621
G1 X10.364 Y31.788 E1.31928
G1 X10.617 Y27.738 F5400.000
G1 X6.569 Y24.498 E1.58555 F600.000
G92 E0
G1 X3.825 Y27.556 F5400.000
G1 X3.825 Y27.556 F5400.000
G1 X4.555 Y17.89 F5400.000
G1 X10.617 Y22.738 E0.39873 F600.000
G92 E0
G1 X10.617 Y17.738 F5400.000
G1 X4.555 Y12.89 E0.39873 F600.000
G92 E0
G1 X3.825 Y27.556 F5400.000
G1 X4.217 Y28.07 F5400.000
G1 X4.266 Y28.129 F5400.000
G1 X4.452 Y28.357 F5400.000
G1 X4.399 Y28.269 F5400.000
G1 X4.569 Y28.574 E0.00291 F1723.988
G1 X5.014 Y29.168 F5400.000
G1 X4.591 Y28.409 E0.01020 F1723.988
G1 X4.802 Y28.577 E0.01278
G1 X5.302 Y29.477 E0.02139
G1 X5.537 Y29.684 E0.02427
G1 X5.014 Y28.745 E0.03329
G1 X5.225 Y28.913 E0.03587
G1 X5.751 Y29.862 E0.04492
G1 X5.962 Y30.03 E0.04750
G1 X5.437 Y29.081 E0.05655
G1 X5.648 Y29.249 E0.05913
G1 X6.174 Y30.198 E0.06818
G1 X6.385 Y30.366 E0.07076
G1 X5.860 Y29.425 E0.07981
G1 X6.071 Y29.593 E0.08239
G1 X6.597 Y30.534 E0.09144
G1 X6.808 Y30.702 E0.09402
G1 X6.283 Y29.761 E0.10308
G1 X6.494 Y29.929 E0.10565
G1 X7.020 Y30.878 E0.11471
G1 X7.231 Y31.047 E0.11729
G1 X6.706 Y30.097 E0.12634
G1 X6.917 Y30.265 E0.12892
G1 X7.443 Y31.215 E0.13798
G1 X7.654 Y31.383 E0.14056
G1 X7.128 Y30.433 E0.14962
G1 X7.340 Y30.609 E0.15219
G1 X7.866 Y31.551 E0.16125
G1 X8.077 Y31.719 E0.16383
G1 X7.551 Y30.777 E0.17289
G1 X7.763 Y30.945 E0.17547
G1 X8.289 Y31.887 E0.18453
G1 X8.500 Y32.063 E0.18711
G1 X7.974 Y31.113 E0.19617
G1 X8.186 Y31.281 E0.19874
G1 X8.691 Y32.195 E0.20746
G1 X8.711 Y32.019 E0.20981
G1 X8.397 Y31.449 E0.21522
G1 X8.609 Y31.617 E0.21779
G1 X8.711 Y31.807 E0.21956
G1 X8.711 Y31.807 F5400.000
G1 X8.609 Y31.617 E0.22132 F1724.003
G1 X8.397 Y31.449 E0.22390
G1 X8.711 Y32.019 E0.22931
G1 X8.691 Y32.195 E0.23165
G1 X8.186 Y31.281 E0.24037
G1 X7.974 Y31.113 E0.24294
G1 X8.500 Y32.063 E0.25201
G1 X8.289 Y31.887 E0.25458
G1 X7.763 Y30.945 E0.26364
G1 X7.551 Y30.777 E0.26622
G1 X8.077 Y31.719 E0.27528
G1 X7.866 Y31.551 E0.27786
G1 X7.340 Y30.609 E0.28692
G1 X7.128 Y30.433 E0.28950
G1 X7.654 Y31.383 E0.29855
G1 X7.443 Y31.215 E0.30113
G1 X6.917 Y30.265 E0.31019
G1 X6.706 Y30.097 E0.31277
G1 X7.231 Y31.046 E0.32182
G1 X7.020 Y30.878 E0.32440
G1 X6.494 Y29.929 E0.33346
G1 X6.283 Y29.761 E0.33603
G1 X6.808 Y30.702 E0.34509
G1 X6.597 Y30.534 E0.34767
G1 X6.071 Y29.593 E0.35672
G1 X5.860 Y29.425 E0.35930
G1 X6.385 Y30.366 E0.36835
G1 X6.174 Y30.198 E0.37093
G1 X5.648 Y29.249 E0.37998
G1 X5.437 Y29.081 E0.38256
G1 X5.962 Y30.03 E0.39161
G1 X5.751 Y29.862 E0.39419
G1 X5.225 Y28.913 E0.40324
G1 X5.014 Y28.745 E0.40582
G1 X5.537 Y29.684 E0.41484
G1 X5.302 Y29.477 E0.41771
G1 X4.802 Y28.577 E0.42633
G1 X4.591 Y28.409 E0.42891
G1 X5.014 Y29.168 E0.43619
G1 X4.569 Y28.574 F5400.000
G1 X4.399 Y28.269 E0.43910 F1724.003
G1 X12.272 Y35.06 F5400.000
G1 X12.189 Y34.905 E0.44055 F1712.961
G1 X12.293 Y34.884 E0.44239
G1 X12.189 Y34.692 E0.44420
G1 X12.210 Y34.524 E0.44657
G1 X12.293 Y34.671 E0.44801
G1 X12.293 Y34.671 F5400.000
G1 X12.210 Y34.524 E0.44946 F1712.802
G1 X12.189 Y34.692 E0.45183
G1 X12.293 Y34.884 E0.45364
G1 X12.189 Y34.905 E0.45548
G1 X12.272 Y35.06 E0.45693
G1 X22.294 Y43.095 F5400.000
G1 X22.192 Y42.913 E0.45867 F1746.842
G1 X22.192 Y42.704 E0.46118
G1 X22.503 Y43.263 E0.46647
G1 X22.712 Y43.431 E0.46898
G1 X22.209 Y42.52 E0.47753
G1 X22.394 Y42.649 E0.47978
G1 X22.920 Y43.599 E0.48873
G1 X23.129 Y43.759 E0.49124
G1 X22.603 Y42.817 E0.50019
G1 X22.812 Y42.985 E0.50270
G1 X23.338 Y43.927 E0.51165
G1 X23.546 Y44.095 E0.51416
G1 X23.020 Y43.153 E0.52311
G1 X23.229 Y43.313 E0.52562
G1 X23.755 Y44.263 E0.53457
G1 X23.964 Y44.431 E0.53708
G1 X23.438 Y43.481 E0.54603
G1 X23.646 Y43.649 E0.54854
G1 X24.173 Y44.599 E0.55748
G1 X24.381 Y44.767 E0.55999
G1 X23.855 Y43.817 E0.56894
G1 X24.064 Y43.985 E0.57145
G1 X24.577 Y44.907 E0.58019
G1 X24.770 Y45.051 E0.58252
G1 X24.272 Y44.153 E0.59099
G1 X24.481 Y44.321 E0.59350
G1 X24.940 Y45.148 E0.60130
G1 X25.097 Y45.216 E0.60329
G1 X24.690 Y44.489 E0.61021
G1 X24.898 Y44.649 E0.61272
G1 X25.244 Y45.274 E0.61859
G1 X25.379 Y45.304 E0.62044
G1 X25.107 Y44.817 E0.62506
G1 X25.316 Y44.985 E0.62757
G1 X25.503 Y45.324 E0.63074
G1 X25.525 Y45.153 E0.63300
G1 X25.607 Y45.299 E0.63440
G1 X25.607 Y45.299 F5400.000
G1 X25.525 Y45.153 E0.63580 F1746.867
G1 X25.503 Y45.324 E0.63807
G1 X25.316 Y44.985 E0.64124
G1 X25.107 Y44.817 E0.64375
G1 X25.379 Y45.304 E0.64837
G1 X25.244 Y45.274 E0.65022
G1 X24.898 Y44.649 E0.65609
G1 X24.690 Y44.489 E0.65860
G1 X25.097 Y45.216 E0.66552
G1 X24.940 Y45.148 E0.66751
G1 X24.481 Y44.321 E0.67531
G1 X24.272 Y44.153 E0.67782
G1 X24.770 Y45.051 E0.68629
G1 X24.577 Y44.907 E0.68862
G1 X24.064 Y43.985 E0.69735
G1 X23.855 Y43.817 E0.69986
G1 X24.381 Y44.767 E0.70881
G1 X24.173 Y44.599 E0.71132
G1 X23.646 Y43.649 E0.72027
G1 X23.438 Y43.481 E0.72278
G1 X23.964 Y44.431 E0.73173
G1 X23.755 Y44.263 E0.73424
G1 X23.229 Y43.313 E0.74319
G1 X23.020 Y43.153 E0.74570
G1 X23.546 Y44.095 E0.75464
G1 X23.338 Y43.927 E0.75715
G1 X22.812 Y42.985 E0.76610
G1 X22.603 Y42.817 E0.76861
G1 X23.129 Y43.759 E0.77756
G1 X22.920 Y43.599 E0.78007
G1 X22.394 Y42.649 E0.78902
G1 X22.209 Y42.52 E0.79127
G1 X22.712 Y43.431 E0.79982
G1 X22.503 Y43.263 E0.80233
G1 X22.192 Y42.704 E0.80762
G1 X22.192 Y42.913 E0.81013
G1 X22.294 Y43.095 E0.81187
G1 Z1.800 F5400.000
G28 X 
G28 Y
G1 X21.838 Y43.081 F5400.000
G1 X21.838 Y41.847 E0.89308 F600.000
G1 X26.430 Y45.527 E1.19512
G1 X26.006 Y45.718 E1.24004
G1 X25.802 Y45.754 E1.25865
G1 X25.572 Y45.739 E1.27741
G1 X25.323 Y45.675 E1.29606
G1 X25.058 Y45.561 E1.31475
G1 X24.789 Y45.409 E1.33296
G1 X24.386 Y45.121 E1.35953
G1 X21.913 Y43.145 E1.52219
G92 E0
G1 X21.955 Y43.06 F5400.000
G1 X21.955 Y43.06 F5400.000
G1 X16.008 Y38.417 F5400.000
G1 X15.362 Y37.905 E0.04254 F600.000
G1 X15.362 Y36.671 E0.12375
G1 X16.008 Y37.183 E0.16629
G1 X16.008 Y38.342 E0.24257
G92 E0
G1 X15.479 Y37.876 F5400.000
G1 X15.479 Y37.876 F5400.000
G1 X12.647 Y35.729 F5400.000
G1 X11.835 Y35.081 E0.05346 F600.000
G1 X11.835 Y33.847 E0.13467
G1 X12.647 Y34.495 E0.18813
G1 X12.647 Y35.654 E0.26441
G92 E0
G1 X11.952 Y35.06 F5400.000
G1 X11.952 Y35.06 F5400.000
G1 X9.065 Y32.865 F5400.000
G1 X5.524 Y30.032 E0.23290 F600.000
G1 X5.226 Y29.763 E0.25263
G1 X4.949 Y29.473 E0.27133
G1 X4.684 Y29.163 E0.29003
G1 X4.434 Y28.827 E0.30871
G1 X4.204 Y28.474 E0.32747
G1 X4.000 Y28.118 E0.34608
G1 X3.576 Y27.239 E0.39098
G1 X9.065 Y31.631 E0.75197
G1 X9.065 Y32.79 E0.82824
G1 X9.697 Y33.001 F5400.000
G1 X9.697 Y34.001 E0.86548 F600.000
G1 X5.493 Y30.641 E1.02210
G1 X5.121 Y30.307 E1.03602
G1 X4.762 Y29.934 E1.04976
G1 X4.418 Y29.522 E1.06349
G1 X4.094 Y29.089 E1.07723
G1 X3.797 Y28.631 E1.09097
G1 X3.531 Y28.168 E1.10467
G1 X3.303 Y27.695 E1.11839
G1 X3.115 Y27.228 E1.13206
G1 X2.971 Y26.778 E1.14574
G1 X2.874 Y26.343 E1.15944
G1 X2.833 Y26.014 E1.17060
G1 X27.166 Y45.478 E2.07689
G1 X27.132 Y45.754 E2.08812
G1 X27.035 Y46.026 E2.10171
G1 X26.891 Y46.252 E2.11540
G1 X26.704 Y46.415 E2.12906
G1 X26.475 Y46.52 E2.14278
G1 X26.210 Y46.567 E2.15647
G1 X25.913 Y46.545 E2.17022
G1 X25.589 Y46.458 E2.18394
G1 X25.245 Y46.318 E2.19768
G1 X24.888 Y46.115 E2.21135
G1 X24.412 Y45.777 E2.22915
G1 X21.206 Y43.209 E2.34856
G1 X21.206 Y42.209 E2.38581
G1 X16.640 Y38.561 E2.55584
G1 X16.640 Y39.561 E2.59308
G1 X14.729 Y38.025 E2.66426
G1 X14.729 Y37.025 E2.70151
G1 X13.279 Y35.865 E2.75551
G1 X13.279 Y36.865 E2.79276
G1 X11.203 Y35.209 E2.87012
G1 X11.203 Y34.209 E2.90736
G1 X9.772 Y33.065 E2.96063
G1 X9.197 Y32.601 F5400.000
G92 E0
G1 X11.952 Y34.06 F5400.000
G1 X15.891 Y37.212 F5400.000
G1 X23.414 Y37.978 F5400.000
G1 X19.653 Y34.97 E0.24737 F600.000
G1 X19.592 Y35.172 E0.26428
G1 X19.592 Y39.172 E0.52735
G1 X19.851 Y35.951 F5400.000
G1 X19.592 Y34.672 E0.59975 F600.000
G1 X19.592 Y30.172 E0.89571
G1 X19.653 Y29.97 E0.91262
G1 X25.428 Y34.586 E1.29246
G92 E0
G1 X26.161 Y45.428 F5400.000
G1 X26.161 Y45.428 F5400.000
G1 X25.428 Y29.586 F5400.000
G1 X19.653 Y24.97 E0.37984 F600.000
G1 X19.592 Y25.173 E0.39676
G1 X19.592 Y29.672 E0.69271
G1 X19.851 Y30.951 E0.76511
G92 E0
G1 X19.851 Y25.951 F5400.000
G1 X19.592 Y24.672 E0.07241 F600.000
G1 X19.592 Y20.172 E0.36836
G1 X19.653 Y19.97 E0.38527
G1 X23.414 Y22.978 E0.63264
G92 E0
G1 X21.955 Y42.06 F5400.000
G1 X21.955 Y42.06 F5400.000
G1 X19.851 Y20.951 F5400.000
G1 X19.592 Y19.672 E0.07241 F600.000
G1 X19.592 Y19.172 E0.10529
G92 E0
G1 X15.479 Y36.876 F5400.000
G1 X12.530 Y34.524 F5400.000
G1 X10.673 Y12.786 F5400.000
G1 X6.592 Y9.522 E0.26837 F600.000
G92 E0
G1 X8.948 Y31.652 F5400.000
G1 X8.948 Y31.652 F5400.000
G1 X10.413 Y11.828 F5400.000
G1 X10.413 Y12.328 E0.03288 F600.000
G1 X10.353 Y12.53 E0.04979
G1 X10.413 Y12.828 E0.06670
G1 X10.413 Y17.328 E0.36265
G1 X10.353 Y17.53 E0.37956
G1 X10.413 Y17.829 E0.39648
G1 X10.413 Y22.328 E0.69243
G1 X10.353 Y22.53 E0.70934
G1 X10.413 Y22.828 E0.72625
G1 X10.413 Y27.328 E1.02220
G1 X10.353 Y27.53 E1.03911
G1 X10.413 Y27.828 E1.05602
G1 X10.413 Y31.828 E1.31908
G1 X10.673 Y27.786 F5400.000
G1 X6.592 Y24.522 E1.58745 F600.000
G92 E0
G1 X3.845 Y27.572 F5400.000
G1 X3.845 Y27.572 F5400.000
G1 X4.575 Y17.906 F5400.000
G1 X10.673 Y22.786 E0.40102 F600.000
G92 E0
G1 X10.673 Y17.786 F5400.000
G1 X4.575 Y12.906 E0.40102 F600.000
G92 E0
G1 X3.845 Y27.572 F5400.000
G1 X4.237 Y28.086 F5400.000
G1 X4.396 Y28.278 F5400.000
G1 X4.472 Y28.373 F5400.000
G1 X4.502 Y28.337 F5400.000
G1 X4.419 Y28.347 E0.00141 F1721.883
G1 X4.525 Y28.541 E0.00322
G1 X4.712 Y28.505 E0.00644
G1 X4.923 Y28.673 E0.00900
G1 X4.650 Y28.73 E0.01368
G1 X4.786 Y28.908 E0.01556
G1 X5.133 Y28.841 E0.02152
G1 X5.344 Y29.009 E0.02408
G1 X4.935 Y29.09 E0.03109
G1 X5.094 Y29.27 E0.03312
G1 X5.555 Y29.177 E0.04103
G1 X5.765 Y29.345 E0.04358
G1 X5.265 Y29.445 E0.05217
G1 X5.456 Y29.617 E0.05451
G1 X5.976 Y29.513 E0.06343
G1 X6.186 Y29.681 E0.06598
G1 X5.661 Y29.79 E0.07500
G1 X5.872 Y29.958 E0.07755
G1 X6.397 Y29.849 E0.08657
G1 X6.608 Y30.017 E0.08912
G1 X6.082 Y30.126 E0.09814
G1 X6.293 Y30.294 E0.10069
G1 X6.818 Y30.185 E0.10971
G1 X7.029 Y30.353 E0.11227
G1 X6.503 Y30.462 E0.12128
G1 X6.714 Y30.63 E0.12384
G1 X7.239 Y30.521 E0.13286
G1 X7.450 Y30.697 E0.13541
G1 X6.924 Y30.798 E0.14443
G1 X7.135 Y30.966 E0.14699
G1 X7.661 Y30.865 E0.15601
G1 X7.871 Y31.033 E0.15856
G1 X7.345 Y31.135 E0.16758
G1 X7.556 Y31.303 E0.17014
G1 X8.082 Y31.201 E0.17916
G1 X8.292 Y31.369 E0.18171
G1 X7.767 Y31.471 E0.19074
G1 X7.977 Y31.639 E0.19329
G1 X8.503 Y31.537 E0.20231
G1 X8.692 Y31.71 E0.20463
G1 X8.188 Y31.807 E0.21329
G1 X8.398 Y31.975 E0.21584
G1 X8.711 Y31.918 E0.22121
G1 X8.711 Y32.128 E0.22377
G1 X8.609 Y32.143 E0.22553
G1 X8.609 Y32.143 F5400.000
G1 X8.711 Y32.128 E0.22728 F1721.904
G1 X8.711 Y31.918 E0.22984
G1 X8.398 Y31.975 E0.23521
G1 X8.188 Y31.807 E0.23776
G1 X8.692 Y31.71 E0.24642
G1 X8.503 Y31.537 E0.24874
G1 X7.977 Y31.639 E0.25776
G1 X7.767 Y31.471 E0.26031
G1 X8.292 Y31.369 E0.26934
G1 X8.082 Y31.201 E0.27189
G1 X7.556 Y31.303 E0.28091
G1 X7.345 Y31.135 E0.28347
G1 X7.871 Y31.033 E0.29249
G1 X7.661 Y30.865 E0.29504
G1 X7.135 Y30.966 E0.30406
G1 X6.924 Y30.798 E0.30662
G1 X7.450 Y30.697 E0.31564
G1 X7.239 Y30.521 E0.31819
G1 X6.714 Y30.63 E0.32721
G1 X6.503 Y30.462 E0.32976
G1 X7.029 Y30.353 E0.33878
G1 X6.818 Y30.185 E0.34134
G1 X6.293 Y30.294 E0.35035
G1 X6.082 Y30.126 E0.35291
G1 X6.608 Y30.017 E0.36192
G1 X6.397 Y29.849 E0.36448
G1 X5.872 Y29.958 E0.37349
G1 X5.661 Y29.79 E0.37605
G1 X6.186 Y29.681 E0.38506
G1 X5.976 Y29.513 E0.38762
G1 X5.456 Y29.617 E0.39654
G1 X5.265 Y29.445 E0.39887
G1 X5.765 Y29.345 E0.40746
G1 X5.555 Y29.177 E0.41002
G1 X5.094 Y29.27 E0.41792
G1 X4.935 Y29.09 E0.41995
G1 X5.344 Y29.009 E0.42697
G1 X5.133 Y28.841 E0.42952
G1 X4.786 Y28.908 E0.43548
G1 X4.650 Y28.73 E0.43736
G1 X4.923 Y28.673 E0.44205
G1 X4.712 Y28.505 E0.44460
G1 X4.525 Y28.541 E0.44782
G1 X4.419 Y28.347 E0.44963
G1 X4.502 Y28.337 E0.45104
G1 X12.210 Y35.012 F5400.000
G1 X12.293 Y34.993 E0.45249 F1703.810
G1 X12.189 Y34.796 E0.45433
G1 X12.293 Y34.78 E0.45614
G1 X12.189 Y34.583 E0.45799
G1 X12.272 Y34.572 E0.45943
G1 X12.272 Y34.572 F5400.000
G1 X12.189 Y34.583 E0.46088 F1703.652
G1 X12.293 Y34.78 E0.46272
G1 X12.189 Y34.796 E0.46453
G1 X12.293 Y34.993 E0.46638
G1 X12.210 Y35.012 E0.46782
G1 X22.192 Y42.591 F5400.000
G1 X22.294 Y42.569 E0.46967 F1641.773
G1 X22.515 Y42.745 E0.47248
G1 X22.192 Y42.812 E0.47829
G1 X22.221 Y43.028 E0.48076
G1 X22.736 Y42.921 E0.49004
G1 X22.957 Y43.097 E0.49285
G1 X22.431 Y43.207 E0.50232
G1 X22.651 Y43.383 E0.50513
G1 X23.178 Y43.273 E0.51460
G1 X23.399 Y43.449 E0.51741
G1 X22.872 Y43.559 E0.52688
G1 X23.093 Y43.735 E0.52969
G1 X23.619 Y43.625 E0.53917
G1 X23.840 Y43.809 E0.54198
G1 X23.314 Y43.911 E0.55145
G1 X23.535 Y44.087 E0.55426
G1 X24.061 Y43.985 E0.56373
G1 X24.282 Y44.161 E0.56654
G1 X23.756 Y44.263 E0.57601
G1 X23.977 Y44.439 E0.57882
G1 X24.503 Y44.337 E0.58829
G1 X24.724 Y44.513 E0.59111
G1 X24.198 Y44.615 E0.60058
G1 X24.425 Y44.792 E0.60348
G1 X24.945 Y44.689 E0.61282
G1 X25.166 Y44.865 E0.61563
G1 X24.666 Y44.965 E0.62463
G1 X24.958 Y45.126 E0.62845
G1 X25.386 Y45.041 E0.63617
G1 X25.587 Y45.221 E0.63874
G1 X25.418 Y45.254 E0.64178
G1 X25.418 Y45.254 F5400.000
G1 X25.587 Y45.221 E0.64483 F1641.789
G1 X25.386 Y45.041 E0.64740
G1 X24.958 Y45.126 E0.65511
G1 X24.666 Y44.965 E0.65893
G1 X25.166 Y44.865 E0.66793
G1 X24.945 Y44.689 E0.67074
G1 X24.425 Y44.792 E0.68008
G1 X24.198 Y44.615 E0.68299
G1 X24.724 Y44.513 E0.69246
G1 X24.503 Y44.337 E0.69527
G1 X23.977 Y44.439 E0.70474
G1 X23.756 Y44.263 E0.70755
G1 X24.282 Y44.161 E0.71702
G1 X24.061 Y43.985 E0.71983
G1 X23.535 Y44.087 E0.72930
G1 X23.314 Y43.911 E0.73211
G1 X23.840 Y43.809 E0.74158
G1 X23.619 Y43.625 E0.74439
G1 X23.093 Y43.735 E0.75387
G1 X22.872 Y43.559 E0.75668
G1 X23.399 Y43.449 E0.76615
G1 X23.178 Y43.273 E0.76896
G1 X22.652 Y43.383 E0.77843
G1 X22.431 Y43.207 E0.78124
G1 X22.957 Y43.097 E0.79071
G1 X22.736 Y42.921 E0.79352
G1 X22.221 Y43.028 E0.80279
G1 X22.192 Y42.812 E0.80526
G1 X22.515 Y42.745 E0.81108
G1 X22.294 Y42.569 E0.81389
G1 X22.192 Y42.591 E0.81573
G1 Z2.000 F5400.000
G28 X 
G28 Y
G1 X21.838 Y43.081 F5400.000
G1 X21.838 Y41.847 E0.89695 F600.000
G1 X26.411 Y45.511 E1.19772
G1 X25.986 Y45.702 E1.24266
G1 X25.782 Y45.738 E1.26128
G1 X25.553 Y45.723 E1.28002
G1 X25.305 Y45.659 E1.29861
G1 X25.037 Y45.544 E1.31741
G1 X24.763 Y45.393 E1.33593
G1 X24.363 Y45.105 E1.36233
G1 X21.913 Y43.145 E1.52350
G92 E0
G1 X21.955 Y43.06 F5400.000
G1 X21.955 Y43.06 F5400.000
G1 X16.008 Y38.417 F5400.000
G1 X15.362 Y37.905 E0.04254 F600.000
G1 X15.362 Y36.671 E0.12375
G1 X16.008 Y37.183 E0.16629
G1 X16.008 Y38.342 E0.24257
G92 E0
G1 X15.479 Y37.876 F5400.000
G1 X15.479 Y37.876 F5400.000
G1 X12.647 Y35.729 F5400.000
G1 X11.835 Y35.081 E0.05346 F600.000
G1 X11.835 Y33.847 E0.13467
G1 X12.647 Y34.495 E0.18813
G1 X12.647 Y35.654 E0.26441
G92 E0
G1 X11.952 Y35.06 F5400.000
G1 X11.952 Y35.06 F5400.000
G1 X9.065 Y32.865 F5400.000
G1 X5.553 Y30.056 E0.23099 F600.000
G1 X5.250 Y29.786 E0.25100
G1 X4.970 Y29.496 E0.26996
G1 X4.702 Y29.179 E0.28878
G1 X4.454 Y28.843 E0.30738
G1 X4.224 Y28.49 E0.32615
G1 X4.020 Y28.134 E0.34477
G1 X3.596 Y27.255 E0.38966
G1 X9.065 Y31.631 E0.74934
G1 X9.065 Y32.79 E0.82561
G1 X9.697 Y33.001 F5400.000
G1 X9.697 Y34.001 E0.86285 F600.000
G1 X5.522 Y30.665 E1.01838
G1 X5.146 Y30.323 E1.03244
G1 X4.784 Y29.95 E1.04630
G1 X4.437 Y29.538 E1.06013
G1 X4.114 Y29.105 E1.07384
G1 X3.816 Y28.647 E1.08759
G1 X3.551 Y28.184 E1.10129
G1 X3.323 Y27.711 E1.11501
G1 X3.134 Y27.244 E1.12869
G1 X2.990 Y26.794 E1.14236
G1 X2.893 Y26.359 E1.15606
G1 X2.853 Y26.03 E1.16722
G1 X27.153 Y45.47 E2.07232
G1 X27.113 Y45.735 E2.08347
G1 X27.016 Y46.01 E2.09717
G1 X26.872 Y46.236 E2.11086
G1 X26.684 Y46.399 E2.12452
G1 X26.455 Y46.504 E2.13824
G1 X26.190 Y46.551 E2.15193
G1 X25.893 Y46.529 E2.16567
G1 X25.570 Y46.45 E2.17938
G1 X25.223 Y46.302 E2.19321
G1 X24.862 Y46.099 E2.20703
G1 X24.389 Y45.753 E2.22470
G1 X21.206 Y43.209 E2.34328
G1 X21.206 Y42.209 E2.38052
G1 X16.640 Y38.561 E2.55055
G1 X16.640 Y39.561 E2.58780
G1 X14.729 Y38.025 E2.65898
G1 X14.729 Y37.025 E2.69622
G1 X13.279 Y35.865 E2.75023
G1 X13.279 Y36.865 E2.78747
G1 X11.203 Y35.209 E2.86483
G1 X11.203 Y34.209 E2.90208
G1 X9.772 Y33.065 E2.95534
G1 X9.197 Y32.601 F5400.000
G92 E0
G1 X11.952 Y34.06 F5400.000
G1 X15.891 Y37.212 F5400.000
G1 X23.385 Y37.954 F5400.000
G1 X19.598 Y34.922 E0.24903 F600.000
G1 X19.538 Y35.124 E0.26593
G1 X19.538 Y39.124 E0.52900
G1 X19.798 Y35.916 F5400.000
G1 X19.538 Y34.624 E0.60230 F600.000
G1 X19.538 Y30.124 E0.89825
G1 X19.598 Y29.922 E0.91516
G1 X25.407 Y34.57 E1.29718
G92 E0
G1 X26.142 Y45.412 F5400.000
G1 X26.142 Y45.412 F5400.000
G1 X25.407 Y29.57 F5400.000
G1 X19.598 Y24.922 E0.38202 F600.000
G1 X19.538 Y25.125 E0.39893
G1 X19.538 Y29.624 E0.69488
G1 X19.798 Y30.916 E0.76818
G92 E0
G1 X19.798 Y25.916 F5400.000
G1 X19.538 Y24.624 E0.07329 F600.000
G1 X19.538 Y20.124 E0.36924
G1 X19.598 Y19.922 E0.38615
G1 X23.385 Y22.954 E0.63518
G92 E0
G1 X21.955 Y42.06 F5400.000
G1 X21.955 Y42.06 F5400.000
G1 X19.798 Y20.916 F5400.000
G1 X19.538 Y19.624 E0.07329 F600.000
G1 X19.538 Y19.124 E0.10618
G92 E0
G1 X15.479 Y36.876 F5400.000
G1 X12.530 Y34.524 F5400.000
G1 X10.728 Y12.826 F5400.000
G1 X6.621 Y9.546 E0.27009 F600.000
G92 E0
G1 X8.948 Y31.652 F5400.000
G1 X8.948 Y31.652 F5400.000
G1 X10.468 Y11.868 F5400.000
G1 X10.468 Y12.368 E0.03288 F600.000
G1 X10.408 Y12.57 E0.04979
G1 X10.468 Y12.868 E0.06670
G1 X10.468 Y17.368 E0.36266
G1 X10.408 Y17.57 E0.37957
G1 X10.468 Y17.869 E0.39648
G1 X10.468 Y22.368 E0.69243
G1 X10.408 Y22.57 E0.70934
G1 X10.468 Y22.868 E0.72625
G1 X10.468 Y27.368 E1.02220
G1 X10.408 Y27.57 E1.03911
G1 X10.468 Y27.868 E1.05602
G1 X10.468 Y31.868 E1.31909
G1 X10.728 Y27.826 F5400.000
G1 X6.621 Y24.546 E1.58917 F600.000
G92 E0
G1 X3.865 Y27.588 F5400.000
G1 X3.865 Y27.588 F5400.000
G1 X4.604 Y17.93 F5400.000
G1 X10.728 Y22.826 E0.40280 F600.000
G92 E0
G1 X10.728 Y17.826 F5400.000
G1 X4.604 Y12.93 E0.40280 F600.000
G92 E0
G1 X3.865 Y27.588 F5400.000
G1 X4.008 Y27.782 F5400.000
G1 X4.257 Y28.102 F5400.000
G1 X4.491 Y28.388 F5400.000
G1 X4.439 Y28.301 F5400.000
G1 X4.608 Y28.606 E0.00288 F1731.111
G1 X5.049 Y29.189 F5400.000
G1 X4.629 Y28.433 E0.01006 F1731.111
G1 X4.838 Y28.601 E0.01259
G1 X5.335 Y29.498 E0.02108
G1 X5.569 Y29.707 E0.02392
G1 X5.048 Y28.769 E0.03283
G1 X5.257 Y28.937 E0.03536
G1 X5.782 Y29.886 E0.04432
G1 X5.992 Y30.054 E0.04685
G1 X5.466 Y29.105 E0.05582
G1 X5.676 Y29.273 E0.05835
G1 X6.201 Y30.222 E0.06732
G1 X6.411 Y30.39 E0.06985
G1 X5.885 Y29.441 E0.07881
G1 X6.095 Y29.609 E0.08134
G1 X6.620 Y30.558 E0.09031
G1 X6.830 Y30.726 E0.09284
G1 X6.304 Y29.777 E0.10181
G1 X6.514 Y29.945 E0.10434
G1 X7.039 Y30.886 E0.11331
G1 X7.249 Y31.055 E0.11584
G1 X6.723 Y30.113 E0.12482
G1 X6.933 Y30.281 E0.12734
G1 X7.459 Y31.223 E0.13632
G1 X7.668 Y31.391 E0.13885
G1 X7.142 Y30.449 E0.14782
G1 X7.352 Y30.617 E0.15035
G1 X7.878 Y31.559 E0.15932
G1 X8.087 Y31.727 E0.16185
G1 X7.561 Y30.785 E0.17083
G1 X7.771 Y30.953 E0.17336
G1 X8.297 Y31.895 E0.18233
G1 X8.506 Y32.063 E0.18486
G1 X7.980 Y31.121 E0.19384
G1 X8.190 Y31.289 E0.19637
G1 X8.693 Y32.193 E0.20497
G1 X8.711 Y32.017 E0.20729
G1 X8.399 Y31.449 E0.21262
G1 X8.609 Y31.617 E0.21514
G1 X8.711 Y31.807 E0.21689
G1 X8.711 Y31.807 F5400.000
G1 X8.609 Y31.617 E0.21864 F1731.125
G1 X8.399 Y31.449 E0.22117
G1 X8.711 Y32.017 E0.22649
G1 X8.693 Y32.193 E0.22882
G1 X8.190 Y31.289 E0.23742
G1 X7.980 Y31.121 E0.23994
G1 X8.506 Y32.063 E0.24892
G1 X8.297 Y31.895 E0.25145
G1 X7.771 Y30.953 E0.26043
G1 X7.561 Y30.785 E0.26295
G1 X8.087 Y31.727 E0.27193
G1 X7.878 Y31.559 E0.27446
G1 X7.352 Y30.617 E0.28343
G1 X7.142 Y30.449 E0.28596
G1 X7.668 Y31.391 E0.29494
G1 X7.459 Y31.223 E0.29747
G1 X6.933 Y30.281 E0.30644
G1 X6.723 Y30.113 E0.30897
G1 X7.249 Y31.054 E0.31794
G1 X7.039 Y30.886 E0.32047
G1 X6.514 Y29.945 E0.32944
G1 X6.304 Y29.777 E0.33197
G1 X6.830 Y30.726 E0.34094
G1 X6.620 Y30.558 E0.34347
G1 X6.095 Y29.609 E0.35244
G1 X5.885 Y29.441 E0.35497
G1 X6.411 Y30.39 E0.36393
G1 X6.201 Y30.222 E0.36646
G1 X5.676 Y29.273 E0.37543
G1 X5.466 Y29.105 E0.37796
G1 X5.992 Y30.054 E0.38693
G1 X5.782 Y29.886 E0.38946
G1 X5.257 Y28.937 E0.39842
G1 X5.048 Y28.769 E0.40095
G1 X5.569 Y29.707 E0.40986
G1 X5.335 Y29.498 E0.41270
G1 X4.838 Y28.601 E0.42119
G1 X4.629 Y28.433 E0.42372
G1 X5.049 Y29.189 E0.43090
G1 X4.608 Y28.606 F5400.000
G1 X4.439 Y28.301 E0.43378 F1731.125
G1 X12.272 Y35.06 F5400.000
G1 X12.189 Y34.905 E0.43522 F1703.913
G1 X12.293 Y34.884 E0.43707
G1 X12.189 Y34.692 E0.43888
G1 X12.210 Y34.524 E0.44124
G1 X12.293 Y34.671 E0.44269
G1 X12.293 Y34.671 F5400.000
G1 X12.210 Y34.524 E0.44413 F1703.755
G1 X12.189 Y34.692 E0.44650
G1 X12.293 Y34.884 E0.44831
G1 X12.189 Y34.905 E0.45016
G1 X12.272 Y35.06 E0.45160
G1 X22.192 Y42.913 F5400.000
G1 X22.294 Y43.095 E0.45342 F1658.473
G1 X22.513 Y43.271 E0.45618
G1 X22.192 Y42.694 E0.46190
G1 X22.219 Y42.518 E0.46434
G1 X22.732 Y43.447 E0.47348
G1 X22.950 Y43.623 E0.47624
G1 X22.424 Y42.673 E0.48561
G1 X22.643 Y42.849 E0.48837
G1 X23.169 Y43.791 E0.49774
G1 X23.388 Y43.967 E0.50050
G1 X22.861 Y43.025 E0.50988
G1 X23.080 Y43.201 E0.51263
G1 X23.606 Y44.143 E0.52201
G1 X23.825 Y44.319 E0.52476
G1 X23.299 Y43.369 E0.53414
G1 X23.517 Y43.545 E0.53689
G1 X24.044 Y44.495 E0.54627
G1 X24.262 Y44.671 E0.54902
G1 X23.736 Y43.721 E0.55840
G1 X23.955 Y43.897 E0.56116
G1 X24.473 Y44.831 E0.57040
G1 X24.675 Y44.975 E0.57295
G1 X24.173 Y44.073 E0.58190
G1 X24.392 Y44.249 E0.58465
G1 X24.860 Y45.093 E0.59298
G1 X25.028 Y45.17 E0.59520
G1 X24.611 Y44.425 E0.60264
G1 X24.829 Y44.593 E0.60539
G1 X25.185 Y45.237 E0.61174
G1 X25.326 Y45.271 E0.61377
G1 X25.048 Y44.769 E0.61873
G1 X25.267 Y44.945 E0.62148
G1 X25.458 Y45.288 E0.62489
G1 X25.485 Y45.121 E0.62733
G1 X25.568 Y45.267 E0.62880
G1 X25.568 Y45.267 F5400.000
G1 X25.485 Y45.121 E0.63027 F1658.497
G1 X25.458 Y45.288 E0.63270
G1 X25.267 Y44.945 E0.63611
G1 X25.048 Y44.769 E0.63887
G1 X25.326 Y45.271 E0.64383
G1 X25.185 Y45.237 E0.64586
G1 X24.829 Y44.593 E0.65220
G1 X24.611 Y44.425 E0.65496
G1 X25.028 Y45.17 E0.66240
G1 X24.860 Y45.093 E0.66461
G1 X24.392 Y44.249 E0.67294
G1 X24.173 Y44.073 E0.67570
G1 X24.675 Y44.975 E0.68464
G1 X24.473 Y44.831 E0.68720
G1 X23.955 Y43.897 E0.69644
G1 X23.736 Y43.721 E0.69919
G1 X24.262 Y44.671 E0.70857
G1 X24.044 Y44.495 E0.71132
G1 X23.517 Y43.545 E0.72070
G1 X23.299 Y43.369 E0.72345
G1 X23.825 Y44.319 E0.73283
G1 X23.606 Y44.143 E0.73559
G1 X23.080 Y43.201 E0.74496
G1 X22.861 Y43.025 E0.74772
G1 X23.388 Y43.967 E0.75709
G1 X23.169 Y43.791 E0.75985
G1 X22.643 Y42.849 E0.76922
G1 X22.424 Y42.673 E0.77198
G1 X22.950 Y43.623 E0.78135
G1 X22.732 Y43.447 E0.78411
G1 X22.219 Y42.518 E0.79325
G1 X22.192 Y42.694 E0.79569
G1 X22.513 Y43.271 E0.80141
G1 X22.294 Y43.095 E0.80416
G1 X22.192 Y42.913 E0.80599
G1 Z2.200 F5400.000
G28 X 
G28 Y
G1 X21.838 Y43.081 F5400.000
G1 X21.838 Y41.847 E0.88720 F600.000
G1 X26.391 Y45.495 E1.18666
G1 X25.964 Y45.683 E1.23153
G1 X25.758 Y45.712 E1.25027
G1 X25.526 Y45.697 E1.26918
G1 X25.274 Y45.634 E1.28806
G1 X25.004 Y45.52 E1.30699
G1 X24.731 Y45.369 E1.32549
G1 X24.327 Y45.073 E1.35212
G1 X21.913 Y43.145 E1.51091
G92 E0
G1 X21.955 Y43.06 F5400.000
G1 X21.955 Y43.06 F5400.000
G1 X16.008 Y38.417 F5400.000
G1 X15.362 Y37.905 E0.04254 F600.000
G1 X15.362 Y36.671 E0.12375
G1 X16.008 Y37.183 E0.16629
G1 X16.008 Y38.342 E0.24257
G92 E0
G1 X15.479 Y37.876 F5400.000
G1 X15.479 Y37.876 F5400.000
G1 X12.647 Y35.729 F5400.000
G1 X11.835 Y35.081 E0.05346 F600.000
G1 X11.835 Y33.847 E0.13467
G1 X12.647 Y34.495 E0.18813
G1 X12.647 Y35.654 E0.26441
G92 E0
G1 X11.952 Y35.06 F5400.000
G1 X11.952 Y35.06 F5400.000
G1 X9.065 Y32.865 F5400.000
G1 X5.586 Y30.08 E0.22882 F600.000
G1 X5.284 Y29.81 E0.24882
G1 X5.003 Y29.52 E0.26779
G1 X4.733 Y29.202 E0.28674
G1 X4.481 Y28.865 E0.30563
G1 X4.248 Y28.503 E0.32457
G1 X4.042 Y28.147 E0.34331
G1 X3.617 Y27.271 E0.38811
G1 X9.065 Y31.631 E0.74644
G1 X9.065 Y32.79 E0.82271
G1 X9.697 Y33.001 F5400.000
G1 X9.697 Y34.001 E0.85995 F600.000
G1 X5.555 Y30.689 E1.01425
G1 X5.179 Y30.347 E1.02830
G1 X4.817 Y29.974 E1.04216
G1 X4.469 Y29.562 E1.05602
G1 X4.143 Y29.129 E1.06986
G1 X3.843 Y28.67 E1.08369
G1 X3.575 Y28.199 E1.09746
G1 X3.344 Y27.726 E1.11122
G1 X3.154 Y27.259 E1.12493
G1 X3.010 Y26.81 E1.13859
G1 X2.913 Y26.375 E1.15229
G1 X2.872 Y26.046 E1.16345
G1 X27.134 Y45.454 E2.06708
G1 X27.093 Y45.719 E2.07824
G1 X26.996 Y45.994 E2.09193
G1 X26.852 Y46.22 E2.10560
G1 X26.663 Y46.382 E2.11928
G1 X26.431 Y46.487 E2.13306
G1 X26.164 Y46.526 E2.14682
G1 X25.864 Y46.505 E2.16065
G1 X25.538 Y46.418 E2.17448
G1 X25.190 Y46.278 E2.18834
G1 X24.829 Y46.067 E2.20214
G1 X24.353 Y45.729 E2.21995
G1 X21.206 Y43.209 E2.33716
G1 X21.206 Y42.209 E2.37441
G1 X16.640 Y38.561 E2.54444
G1 X16.640 Y39.561 E2.58169
G1 X14.729 Y38.025 E2.65286
G1 X14.729 Y37.025 E2.69011
G1 X13.279 Y35.865 E2.74412
G1 X13.279 Y36.865 E2.78136
G1 X11.203 Y35.209 E2.85872
G1 X11.203 Y34.209 E2.89597
G1 X9.772 Y33.065 E2.94923
G1 X9.197 Y32.601 F5400.000
G92 E0
G1 X11.952 Y34.06 F5400.000
G1 X15.891 Y37.212 F5400.000
G1 X23.345 Y37.922 F5400.000
G1 X19.528 Y34.866 E0.25101 F600.000
G1 X19.470 Y35.076 E0.26790
G1 X19.470 Y39.076 E0.53096
G1 X19.737 Y35.925 F5400.000
G1 X19.470 Y34.576 E0.60799 F600.000
G1 X19.470 Y30.076 E0.90394
G1 X19.528 Y29.866 E0.92083
G1 X25.377 Y34.546 E1.30547
G92 E0
G1 X26.120 Y45.396 F5400.000
G1 X26.120 Y45.396 F5400.000
G1 X25.377 Y29.546 F5400.000
G1 X19.528 Y24.866 E0.38464 F600.000
G1 X19.470 Y25.077 E0.40153
G1 X19.470 Y29.576 E0.69748
G1 X19.737 Y30.925 E0.77450
G92 E0
G1 X19.737 Y25.925 F5400.000
G1 X19.470 Y24.576 E0.07703 F600.000
G1 X19.470 Y20.076 E0.37298
G1 X19.528 Y19.866 E0.38986
G1 X23.345 Y22.922 E0.64087
G92 E0
G1 X21.955 Y42.06 F5400.000
G1 X21.955 Y42.06 F5400.000
G1 X19.737 Y20.925 F5400.000
G1 X19.470 Y19.576 E0.07703 F600.000
G1 X19.470 Y19.076 E0.10991
G92 E0
G1 X15.479 Y36.876 F5400.000
G1 X12.530 Y34.524 F5400.000
G1 X10.804 Y12.89 F5400.000
G1 X6.661 Y9.578 E0.27241 F600.000
G92 E0
G1 X8.948 Y31.652 F5400.000
G1 X8.948 Y31.652 F5400.000
G1 X10.538 Y11.924 F5400.000
G1 X10.538 Y12.424 E0.03288 F600.000
G1 X10.479 Y12.626 E0.04977
G1 X10.538 Y12.924 E0.06666
G1 X10.538 Y17.424 E0.36261
G1 X10.479 Y17.626 E0.37951
G1 X10.538 Y17.925 E0.39640
G1 X10.538 Y22.424 E0.69235
G1 X10.479 Y22.626 E0.70924
G1 X10.538 Y22.924 E0.72613
G1 X10.538 Y27.424 E1.02208
G1 X10.479 Y27.626 E1.03897
G1 X10.538 Y27.924 E1.05586
G1 X10.538 Y31.924 E1.31893
G1 X10.804 Y27.89 F5400.000
G1 X6.661 Y24.578 E1.59134 F600.000
G92 E0
G1 X3.886 Y27.604 F5400.000
G1 X3.886 Y27.604 F5400.000
G1 X4.632 Y17.954 F5400.000
G1 X10.804 Y22.89 E0.40589 F600.000
G92 E0
G1 X10.804 Y17.89 F5400.000
G1 X4.632 Y12.955 E0.40589 F600.000
G92 E0
G1 X3.886 Y27.604 F5400.000
G1 X4.026 Y27.796 F5400.000
G1 X4.276 Y28.116 F5400.000
G1 X4.512 Y28.402 F5400.000
G1 X4.548 Y28.369 F5400.000
G1 X4.465 Y28.387 E0.00140 F1743.011
G1 X4.570 Y28.579 E0.00317
G1 X4.756 Y28.537 E0.00633
G1 X4.965 Y28.705 E0.00884
G1 X4.695 Y28.759 E0.01342
G1 X4.830 Y28.944 E0.01527
G1 X5.173 Y28.873 E0.02110
G1 X5.382 Y29.041 E0.02360
G1 X4.977 Y29.117 E0.03047
G1 X5.133 Y29.298 E0.03245
G1 X5.590 Y29.209 E0.04021
G1 X5.799 Y29.369 E0.04272
G1 X5.302 Y29.473 E0.05115
G1 X5.490 Y29.646 E0.05342
G1 X6.007 Y29.537 E0.06221
G1 X6.216 Y29.705 E0.06471
G1 X5.690 Y29.814 E0.07364
G1 X5.899 Y29.974 E0.07614
G1 X6.424 Y29.873 E0.08507
G1 X6.633 Y30.041 E0.08757
G1 X6.107 Y30.142 E0.09650
G1 X6.316 Y30.31 E0.09900
G1 X6.841 Y30.209 E0.10793
G1 X7.050 Y30.377 E0.11043
G1 X6.524 Y30.478 E0.11936
G1 X6.733 Y30.646 E0.12187
G1 X7.258 Y30.537 E0.13080
G1 X7.467 Y30.705 E0.13330
G1 X6.941 Y30.814 E0.14223
G1 X7.150 Y30.982 E0.14473
G1 X7.675 Y30.873 E0.15366
G1 X7.884 Y31.041 E0.15617
G1 X7.358 Y31.143 E0.16510
G1 X7.566 Y31.311 E0.16761
G1 X8.092 Y31.209 E0.17654
G1 X8.301 Y31.377 E0.17904
G1 X7.775 Y31.479 E0.18797
G1 X7.983 Y31.647 E0.19048
G1 X8.509 Y31.537 E0.19941
G1 X8.694 Y31.712 E0.20166
G1 X8.192 Y31.815 E0.21019
G1 X8.400 Y31.983 E0.21270
G1 X8.711 Y31.92 E0.21798
G1 X8.711 Y32.128 E0.22048
G1 X8.609 Y32.143 E0.22222
G1 X8.609 Y32.143 F5400.000
G1 X8.711 Y32.128 E0.22396 F1743.032
G1 X8.711 Y31.92 E0.22647
G1 X8.400 Y31.983 E0.23175
G1 X8.192 Y31.815 E0.23425
G1 X8.694 Y31.712 E0.24279
G1 X8.509 Y31.537 E0.24504
G1 X7.983 Y31.647 E0.25397
G1 X7.775 Y31.479 E0.25647
G1 X8.301 Y31.377 E0.26540
G1 X8.092 Y31.209 E0.26791
G1 X7.566 Y31.311 E0.27684
G1 X7.358 Y31.143 E0.27935
G1 X7.884 Y31.041 E0.28828
G1 X7.675 Y30.873 E0.29078
G1 X7.150 Y30.982 E0.29971
G1 X6.941 Y30.814 E0.30221
G1 X7.467 Y30.705 E0.31114
G1 X7.258 Y30.537 E0.31365
G1 X6.733 Y30.646 E0.32258
G1 X6.524 Y30.478 E0.32508
G1 X7.050 Y30.377 E0.33401
G1 X6.841 Y30.209 E0.33651
G1 X6.316 Y30.31 E0.34544
G1 X6.107 Y30.142 E0.34794
G1 X6.633 Y30.041 E0.35687
G1 X6.424 Y29.873 E0.35938
G1 X5.899 Y29.974 E0.36830
G1 X5.690 Y29.814 E0.37080
G1 X6.216 Y29.705 E0.37973
G1 X6.007 Y29.537 E0.38223
G1 X5.490 Y29.646 E0.39102
G1 X5.302 Y29.473 E0.39329
G1 X5.799 Y29.369 E0.40172
G1 X5.590 Y29.209 E0.40423
G1 X5.133 Y29.298 E0.41199
G1 X4.977 Y29.117 E0.41397
G1 X5.382 Y29.041 E0.42084
G1 X5.173 Y28.873 E0.42334
G1 X4.830 Y28.944 E0.42917
G1 X4.695 Y28.759 E0.43102
G1 X4.965 Y28.705 E0.43560
G1 X4.756 Y28.537 E0.43811
G1 X4.570 Y28.579 E0.44127
G1 X4.465 Y28.387 E0.44304
G1 X4.548 Y28.369 E0.44444
G1 X12.210 Y35.012 F5400.000
G1 X12.293 Y34.993 E0.44588 F1707.570
G1 X12.189 Y34.796 E0.44773
G1 X12.293 Y34.78 E0.44954
G1 X12.189 Y34.583 E0.45138
G1 X12.272 Y34.572 E0.45283
G1 X12.272 Y34.572 F5400.000
G1 X12.189 Y34.583 E0.45427 F1707.412
G1 X12.293 Y34.78 E0.45612
G1 X12.189 Y34.796 E0.45793
G1 X12.293 Y34.993 E0.45977
G1 X12.210 Y35.012 E0.46122
G1 X22.192 Y42.591 F5400.000
G1 X22.294 Y42.569 E0.46304 F1668.494
G1 X22.512 Y42.745 E0.46577
G1 X22.192 Y42.809 E0.47145
G1 X22.218 Y43.017 E0.47388
G1 X22.730 Y42.921 E0.48297
G1 X22.948 Y43.089 E0.48571
G1 X22.421 Y43.199 E0.49505
G1 X22.639 Y43.367 E0.49778
G1 X23.166 Y43.265 E0.50712
G1 X23.383 Y43.441 E0.50986
G1 X22.857 Y43.543 E0.51920
G1 X23.075 Y43.719 E0.52193
G1 X23.601 Y43.617 E0.53127
G1 X23.819 Y43.785 E0.53400
G1 X23.293 Y43.895 E0.54334
G1 X23.511 Y44.071 E0.54608
G1 X24.037 Y43.961 E0.55542
G1 X24.255 Y44.137 E0.55815
G1 X23.728 Y44.239 E0.56749
G1 X23.946 Y44.415 E0.57022
G1 X24.472 Y44.313 E0.57956
G1 X24.690 Y44.489 E0.58230
G1 X24.164 Y44.591 E0.59164
G1 X24.391 Y44.766 E0.59449
G1 X24.908 Y44.657 E0.60367
G1 X25.126 Y44.833 E0.60640
G1 X24.628 Y44.931 E0.61524
G1 X24.922 Y45.095 E0.61906
G1 X25.344 Y45.009 E0.62654
G1 X25.541 Y45.189 E0.62904
G1 X25.378 Y45.216 E0.63194
G1 X25.378 Y45.216 F5400.000
G1 X25.541 Y45.189 E0.63484 F1668.511
G1 X25.344 Y45.009 E0.63734
G1 X24.922 Y45.095 E0.64482
G1 X24.628 Y44.931 E0.64863
G1 X25.126 Y44.833 E0.65747
G1 X24.908 Y44.657 E0.66021
G1 X24.391 Y44.766 E0.66939
G1 X24.164 Y44.591 E0.67224
G1 X24.690 Y44.489 E0.68158
G1 X24.472 Y44.313 E0.68431
G1 X23.946 Y44.415 E0.69365
G1 X23.728 Y44.239 E0.69638
G1 X24.255 Y44.137 E0.70572
G1 X24.037 Y43.961 E0.70846
G1 X23.511 Y44.071 E0.71780
G1 X23.293 Y43.895 E0.72053
G1 X23.819 Y43.785 E0.72987
G1 X23.601 Y43.617 E0.73260
G1 X23.075 Y43.719 E0.74194
G1 X22.857 Y43.543 E0.74468
G1 X23.383 Y43.441 E0.75402
G1 X23.166 Y43.265 E0.75675
G1 X22.639 Y43.367 E0.76609
G1 X22.421 Y43.199 E0.76882
G1 X22.948 Y43.089 E0.77816
G1 X22.730 Y42.921 E0.78090
G1 X22.218 Y43.017 E0.78999
G1 X22.192 Y42.809 E0.79242
G1 X22.512 Y42.745 E0.79810
G1 X22.294 Y42.569 E0.80083
G1 X22.192 Y42.591 E0.80265
G1 Z2.400 F5400.000
G28 X 
G28 Y
G1 X21.838 Y43.081 F5400.000
G1 X21.838 Y41.847 E0.88386 F600.000
G1 X26.358 Y45.463 E1.18114
G1 X25.931 Y45.659 E1.22600
G1 X25.725 Y45.688 E1.24473
G1 X25.493 Y45.673 E1.26365
G1 X25.240 Y45.61 E1.28253
G1 X24.971 Y45.496 E1.30147
G1 X24.698 Y45.337 E1.31993
G1 X24.290 Y45.049 E1.34688
G1 X21.913 Y43.145 E1.50321
G92 E0
G1 X21.955 Y43.06 F5400.000
G1 X21.955 Y43.06 F5400.000
G1 X16.008 Y38.417 F5400.000
G1 X15.362 Y37.905 E0.04254 F600.000
G1 X15.362 Y36.671 E0.12375
G1 X16.008 Y37.183 E0.16629
G1 X16.008 Y38.342 E0.24257
G92 E0
G1 X15.479 Y37.876 F5400.000
G1 X15.479 Y37.876 F5400.000
G1 X12.647 Y35.729 F5400.000
G1 X11.835 Y35.081 E0.05346 F600.000
G1 X11.835 Y33.847 E0.13467
G1 X12.647 Y34.495 E0.18813
G1 X12.647 Y35.654 E0.26441
G92 E0
G1 X11.952 Y35.06 F5400.000
G1 X11.952 Y35.06 F5400.000
G1 X9.065 Y32.865 F5400.000
G1 X5.619 Y30.104 E0.22665 F600.000
G1 X5.317 Y29.834 E0.24664
G1 X5.036 Y29.544 E0.26562
G1 X4.766 Y29.226 E0.28458
G1 X4.514 Y28.889 E0.30347
G1 X4.281 Y28.536 E0.32239
G1 X4.075 Y28.171 E0.34113
G1 X3.650 Y27.303 E0.38593
G1 X9.065 Y31.631 E0.74208
G1 X9.065 Y32.79 E0.81834
G1 X9.697 Y33.001 F5400.000
G1 X9.697 Y34.001 E0.85559 F600.000
G1 X5.588 Y30.713 E1.00866
G1 X5.213 Y30.379 E1.02270
G1 X4.850 Y30.006 E1.03657
G1 X4.502 Y29.594 E1.05043
G1 X4.176 Y29.153 E1.06427
G1 X3.876 Y28.694 E1.07810
G1 X3.608 Y28.223 E1.09187
G1 X3.377 Y27.75 E1.10563
G1 X3.187 Y27.283 E1.11934
G1 X3.042 Y26.833 E1.13303
G1 X2.944 Y26.399 E1.14673
G1 X2.904 Y26.07 E1.15787
G1 X27.103 Y45.43 E2.05919
G1 X27.062 Y45.695 E2.07033
G1 X26.964 Y45.969 E2.08403
G1 X26.819 Y46.187 E2.09773
G1 X26.630 Y46.358 E2.11142
G1 X26.398 Y46.455 E2.12520
G1 X26.131 Y46.502 E2.13895
G1 X25.831 Y46.481 E2.15278
G1 X25.505 Y46.394 E2.16661
G1 X25.157 Y46.246 E2.18047
G1 X24.796 Y46.043 E2.19426
G1 X24.315 Y45.697 E2.21225
G1 X21.206 Y43.209 E2.32807
G1 X21.206 Y42.209 E2.36531
G1 X16.640 Y38.561 E2.53534
G1 X16.640 Y39.561 E2.57259
G1 X14.729 Y38.025 E2.64376
G1 X14.729 Y37.025 E2.68101
G1 X13.279 Y35.865 E2.73502
G1 X13.279 Y36.865 E2.77226
G1 X11.203 Y35.209 E2.84962
G1 X11.203 Y34.209 E2.88687
G1 X9.772 Y33.065 E2.94013
G1 X9.197 Y32.601 F5400.000
G92 E0
G1 X11.952 Y34.06 F5400.000
G1 X15.891 Y37.212 F5400.000
G1 X23.305 Y37.89 F5400.000
G1 X19.450 Y34.81 E0.25353 F600.000
G1 X19.392 Y35.012 E0.27040
G1 X19.392 Y39.012 E0.53347
G1 X19.661 Y35.886 F5400.000
G1 X19.392 Y34.512 E0.61161 F600.000
G1 X19.392 Y30.012 E0.90756
G1 X19.450 Y29.81 E0.92444
G1 X25.341 Y34.522 E1.31186
G92 E0
G1 X26.087 Y45.364 F5400.000
G1 X26.087 Y45.364 F5400.000
G1 X25.341 Y29.522 F5400.000
G1 X19.450 Y24.81 E0.38742 F600.000
G1 X19.392 Y25.013 E0.40430
G1 X19.392 Y29.512 E0.70025
G1 X19.661 Y30.886 E0.77839
G92 E0
G1 X19.661 Y25.886 F5400.000
G1 X19.392 Y24.512 E0.07814 F600.000
G1 X19.392 Y20.012 E0.37409
G1 X19.450 Y19.81 E0.39097
G1 X23.305 Y22.89 E0.64450
G92 E0
G1 X21.955 Y42.06 F5400.000
G1 X21.955 Y42.06 F5400.000
G1 X19.661 Y20.886 F5400.000
G1 X19.392 Y19.512 E0.07814 F600.000
G1 X19.392 Y19.012 E0.11102
G92 E0
G1 X15.479 Y36.876 F5400.000
G1 X12.530 Y34.524 F5400.000
G1 X10.884 Y12.954 F5400.000
G1 X6.701 Y9.61 E0.27504 F600.000
G92 E0
G1 X8.948 Y31.652 F5400.000
G1 X8.948 Y31.652 F5400.000
G1 X10.612 Y11.988 F5400.000
G1 X10.612 Y12.488 E0.03288 F600.000
G1 X10.554 Y12.69 E0.04975
G1 X10.612 Y12.988 E0.06663
G1 X10.612 Y17.488 E0.36258
G1 X10.554 Y17.69 E0.37945
G1 X10.612 Y17.989 E0.39632
G1 X10.612 Y22.488 E0.69227
G1 X10.554 Y22.69 E0.70914
G1 X10.612 Y22.988 E0.72601
G1 X10.612 Y27.488 E1.02196
G1 X10.554 Y27.69 E1.03883
G1 X10.612 Y27.988 E1.05570
G1 X10.612 Y31.988 E1.31877
G1 X10.884 Y27.954 F5400.000
G1 X6.701 Y24.61 E1.59381 F600.000
G92 E0
G1 X3.919 Y27.628 F5400.000
G1 X3.919 Y27.628 F5400.000
G1 X4.660 Y17.978 F5400.000
G1 X10.884 Y22.954 E0.40928 F600.000
G92 E0
G1 X10.884 Y17.954 F5400.000
G1 X4.660 Y12.978 E0.40928 F600.000
G92 E0
G1 X3.919 Y27.628 F5400.000
G1 X4.059 Y27.82 F5400.000
G1 X4.309 Y28.14 F5400.000
G1 X4.546 Y28.427 F5400.000
G1 X4.498 Y28.349 F5400.000
G1 X4.662 Y28.648 E0.00289 F1673.532
G1 X4.696 Y28.489 E0.00523
G1 X5.117 Y29.246 E0.01269
G1 X5.413 Y29.565 E0.01653
G1 X4.913 Y28.665 E0.02538
G1 X5.130 Y28.841 E0.02811
G1 X5.654 Y29.781 E0.03738
G1 X5.873 Y29.958 E0.04013
G1 X5.348 Y29.009 E0.04943
G1 X5.565 Y29.185 E0.05215
G1 X6.091 Y30.134 E0.06146
G1 X6.308 Y30.302 E0.06418
G1 X5.783 Y29.361 E0.07349
G1 X6.000 Y29.537 E0.07621
G1 X6.525 Y30.478 E0.08552
G1 X6.743 Y30.654 E0.08825
G1 X6.217 Y29.705 E0.09756
G1 X6.435 Y29.881 E0.10028
G1 X6.960 Y30.83 E0.10959
G1 X7.178 Y30.998 E0.11231
G1 X6.652 Y30.057 E0.12162
G1 X6.870 Y30.233 E0.12435
G1 X7.395 Y31.175 E0.13366
G1 X7.613 Y31.351 E0.13638
G1 X7.087 Y30.401 E0.14569
G1 X7.304 Y30.577 E0.14842
G1 X7.830 Y31.527 E0.15773
G1 X8.048 Y31.695 E0.16045
G1 X7.522 Y30.753 E0.16977
G1 X7.739 Y30.921 E0.17249
G1 X8.265 Y31.871 E0.18181
G1 X8.482 Y32.047 E0.18453
G1 X7.957 Y31.097 E0.19385
G1 X8.174 Y31.273 E0.19657
G1 X8.686 Y32.192 E0.20563
G1 X8.711 Y32.025 E0.20806
G1 X8.391 Y31.449 E0.21372
G1 X8.609 Y31.617 E0.21644
G1 X8.711 Y31.807 E0.21826
G1 X8.711 Y31.807 F5400.000
G1 X8.609 Y31.617 E0.22007 F1673.547
G1 X8.391 Y31.449 E0.22279
G1 X8.711 Y32.025 E0.22846
G1 X8.685 Y32.192 E0.23088
G1 X8.174 Y31.273 E0.23994
G1 X7.957 Y31.097 E0.24267
G1 X8.482 Y32.047 E0.25198
G1 X8.265 Y31.871 E0.25471
G1 X7.739 Y30.921 E0.26402
G1 X7.522 Y30.753 E0.26674
G1 X8.048 Y31.695 E0.27606
G1 X7.830 Y31.527 E0.27878
G1 X7.304 Y30.577 E0.28810
G1 X7.087 Y30.401 E0.29082
G1 X7.613 Y31.351 E0.30013
G1 X7.395 Y31.175 E0.30285
G1 X6.870 Y30.233 E0.31217
G1 X6.652 Y30.057 E0.31489
G1 X7.178 Y30.998 E0.32420
G1 X6.960 Y30.83 E0.32692
G1 X6.435 Y29.881 E0.33623
G1 X6.217 Y29.705 E0.33896
G1 X6.743 Y30.654 E0.34826
G1 X6.525 Y30.478 E0.35099
G1 X6.000 Y29.537 E0.36030
G1 X5.783 Y29.361 E0.36302
G1 X6.308 Y30.302 E0.37233
G1 X6.091 Y30.134 E0.37505
G1 X5.565 Y29.185 E0.38435
G1 X5.348 Y29.009 E0.38708
G1 X5.873 Y29.958 E0.39638
G1 X5.654 Y29.781 E0.39913
G1 X5.131 Y28.841 E0.40840
G1 X4.913 Y28.665 E0.41113
G1 X5.413 Y29.565 E0.41998
G1 X5.117 Y29.246 E0.42382
G1 X4.696 Y28.489 E0.43128
G1 X4.662 Y28.648 E0.43361
G1 X4.498 Y28.349 E0.43651
G1 X12.272 Y35.06 F5400.000
G1 X12.189 Y34.905 E0.43795 F1709.415
G1 X12.293 Y34.884 E0.43980
G1 X12.189 Y34.692 E0.44161
G1 X12.210 Y34.524 E0.44397
G1 X12.293 Y34.671 E0.44542
G1 X12.293 Y34.671 F5400.000
G1 X12.210 Y34.524 E0.44686 F1709.256
G1 X12.189 Y34.692 E0.44923
G1 X12.293 Y34.884 E0.45104
G1 X12.189 Y34.905 E0.45288
G1 X12.272 Y35.06 E0.45433
G1 X22.192 Y42.913 F5400.000
G1 X22.294 Y43.095 E0.45613 F1690.750
G1 X22.509 Y43.263 E0.45879
G1 X22.192 Y42.698 E0.46436
G1 X22.215 Y42.522 E0.46676
G1 X22.725 Y43.439 E0.47569
G1 X22.940 Y43.615 E0.47836
G1 X22.414 Y42.665 E0.48759
G1 X22.629 Y42.833 E0.49025
G1 X23.155 Y43.783 E0.49948
G1 X23.370 Y43.959 E0.50215
G1 X22.844 Y43.009 E0.51138
G1 X23.059 Y43.177 E0.51405
G1 X23.585 Y44.127 E0.52327
G1 X23.800 Y44.303 E0.52594
G1 X23.274 Y43.353 E0.53517
G1 X23.489 Y43.521 E0.53784
G1 X24.016 Y44.471 E0.54706
G1 X24.231 Y44.647 E0.54973
G1 X23.705 Y43.697 E0.55896
G1 X23.920 Y43.873 E0.56163
G1 X24.436 Y44.797 E0.57067
G1 X24.635 Y44.941 E0.57315
G1 X24.135 Y44.041 E0.58191
G1 X24.350 Y44.217 E0.58458
G1 X24.813 Y45.048 E0.59270
G1 X24.977 Y45.125 E0.59483
G1 X24.565 Y44.385 E0.60205
G1 X24.780 Y44.561 E0.60472
G1 X25.131 Y45.191 E0.61086
G1 X25.270 Y45.227 E0.61282
G1 X24.996 Y44.729 E0.61764
G1 X25.211 Y44.905 E0.62030
G1 X25.400 Y45.246 E0.62362
G1 X25.426 Y45.073 E0.62598
G1 X25.508 Y45.219 E0.62743
G1 X25.508 Y45.219 F5400.000
G1 X25.426 Y45.073 E0.62887 F1690.775
G1 X25.400 Y45.246 E0.63124
G1 X25.211 Y44.905 E0.63455
G1 X24.996 Y44.729 E0.63722
G1 X25.270 Y45.227 E0.64203
G1 X25.131 Y45.191 E0.64400
G1 X24.780 Y44.561 E0.65014
G1 X24.565 Y44.385 E0.65281
G1 X24.977 Y45.125 E0.66003
G1 X24.813 Y45.048 E0.66216
G1 X24.350 Y44.217 E0.67027
G1 X24.135 Y44.041 E0.67294
G1 X24.635 Y44.941 E0.68171
G1 X24.436 Y44.797 E0.68418
G1 X23.920 Y43.873 E0.69323
G1 X23.705 Y43.697 E0.69589
G1 X24.231 Y44.647 E0.70512
G1 X24.016 Y44.471 E0.70779
G1 X23.489 Y43.521 E0.71702
G1 X23.274 Y43.353 E0.71968
G1 X23.800 Y44.303 E0.72891
G1 X23.585 Y44.127 E0.73158
G1 X23.059 Y43.177 E0.74080
G1 X22.844 Y43.009 E0.74347
G1 X23.370 Y43.959 E0.75270
G1 X23.155 Y43.783 E0.75537
G1 X22.629 Y42.833 E0.76459
G1 X22.414 Y42.665 E0.76726
G1 X22.940 Y43.615 E0.77649
G1 X22.725 Y43.439 E0.77916
G1 X22.215 Y42.522 E0.78809
G1 X22.192 Y42.698 E0.79049
G1 X22.509 Y43.263 E0.79605
G1 X22.294 Y43.095 E0.79872
G1 X22.192 Y42.913 E0.80052
G1 Z2.600 F5400.000
G28 X 
G28 Y
G1 X3.683 Y27.327 F5400.000
G1 X26.325 Y45.439 E2.28956 F328.087
G1 X25.898 Y45.627 E2.33442
G1 X25.692 Y45.664 E2.35314
G1 X25.460 Y45.649 E2.37207
G1 X25.207 Y45.578 E2.39095
G1 X24.938 Y45.464 E2.40989
G1 X24.656 Y45.306 E2.42897
G1 X24.347 Y45.088 E2.44938
G1 X5.755 Y30.217 E3.67209
G1 X5.344 Y29.857 E3.69920
G1 X5.068 Y29.568 E3.71784
G1 X4.799 Y29.25 E3.73676
G1 X4.547 Y28.913 E3.75565
G1 X4.314 Y28.56 E3.77456
G1 X4.108 Y28.195 E3.79330
G1 X3.730 Y27.425 E3.83317
G1 X2.937 Y26.094 F5400.000
G1 X27.062 Y45.398 E4.73174 F579.313
G1 X27.028 Y45.666 E4.74296
G1 X26.931 Y45.945 E4.75654
G1 X26.786 Y46.163 E4.77024
G1 X26.596 Y46.326 E4.78394
G1 X26.365 Y46.431 E4.79771
G1 X26.098 Y46.47 E4.81147
G1 X25.798 Y46.449 E4.82530
G1 X25.472 Y46.37 E4.83913
G1 X25.000 Y46.155 E4.85770
G1 X24.758 Y46.011 E4.86693
G1 X24.378 Y45.745 E4.88118
G1 X20.706 Y42.809 E5.01795
M106 S255
G1 X20.255 Y42.449 E5.05035 F299.683
M106 S255
G1 X19.308 Y41.689 E5.08563 F579.313
M106 S255
G1 X17.140 Y39.961 E5.24172 F299.683
M106 S255
G1 X14.229 Y37.625 E5.35015 F579.313
M106 S255
G1 X13.779 Y37.265 E5.38255 F299.683
M106 S255
G1 X10.703 Y34.809 E5.49715 F579.313
M106 S255
G1 X10.198 Y34.401 E5.53351 F299.683
M106 S255
G1 X5.730 Y30.833 E5.69991 F579.313
G1 X5.247 Y30.403 E5.71797
G1 X4.883 Y30.03 E5.73187
G1 X4.535 Y29.618 E5.74573
G1 X4.208 Y29.177 E5.75958
G1 X3.909 Y28.718 E5.77340
G1 X3.641 Y28.255 E5.78717
G1 X3.411 Y27.782 E5.80093
G1 X3.220 Y27.315 E5.81464
G1 X3.075 Y26.857 E5.82833
G1 X2.977 Y26.423 E5.84203
G1 X2.947 Y26.177 E5.85038
G1 X3.381 Y26.685 F5400.000
G1 X10.703 Y32.06 F5400.000
G1 X10.703 Y28.06 E6.11345 F328.087
G1 X10.646 Y27.762 E6.13031
G1 X10.703 Y27.56 E6.14717
G1 X10.703 Y23.06 E6.44312
G1 X10.646 Y22.762 E6.45998
G1 X10.703 Y22.56 E6.47684
G1 X10.703 Y18.061 E6.77279
G1 X10.646 Y17.762 E6.78965
G1 X10.703 Y17.56 E6.80651
G1 X10.703 Y13.06 E7.10246
G1 X10.646 Y12.762 E7.11932
G1 X10.703 Y12.56 E7.13618
G1 X10.703 Y12.06 E7.16906
G1 X10.978 Y13.026 F5400.000
G1 X6.743 Y9.642 E7.44759 F328.087
G92 E0
G1 X3.952 Y27.66 F5400.000
G1 X3.952 Y27.66 F5400.000
G1 X4.700 Y13.01 F5400.000
G1 X10.978 Y18.026 E0.41287 F328.087
G92 E0
G1 X10.978 Y23.026 F5400.000
G1 X4.700 Y18.01 E0.41287 F328.087
G92 E0
G1 X3.952 Y27.66 F5400.000
G1 X3.952 Y27.66 F5400.000
G1 X6.743 Y24.642 F5400.000
G1 X10.978 Y28.026 E0.27853 F328.087
G92 E0
G1 X26.054 Y45.34 F5400.000
G1 X26.054 Y45.34 F5400.000
G1 X19.586 Y35.903 F5400.000
G1 X19.307 Y34.44 E0.08349 F328.087
G1 X19.307 Y29.94 E0.37944
G1 X19.364 Y29.738 E0.39629
G1 X25.306 Y34.49 E0.78707
G92 E0
G1 X26.054 Y45.34 F5400.000
G1 X26.054 Y45.34 F5400.000
G1 X25.306 Y29.49 F5400.000
G1 X19.364 Y24.738 E0.39078 F328.087
G1 X19.307 Y24.941 E0.40764
G1 X19.307 Y29.44 E0.70359
G1 X19.586 Y30.903 E0.78707
G92 E0
G1 X19.586 Y25.903 F5400.000
G1 X19.307 Y24.44 E0.08349 F328.087
G1 X19.307 Y19.94 E0.37944
G1 X19.364 Y19.738 E0.39629
G1 X23.264 Y22.858 E0.65283
G92 E0
G1 X26.054 Y45.34 F5400.000
G1 X26.054 Y45.34 F5400.000
G1 X19.586 Y20.903 F5400.000
G1 X19.307 Y19.44 E0.08349 F328.087
G1 X19.307 Y18.94 E0.11637
G92 E0
G1 X26.054 Y45.34 F5400.000
G1 X26.054 Y45.34 F5400.000
G1 X23.264 Y37.858 F5400.000
G1 X19.364 Y34.738 E0.25654 F328.087
G1 X19.307 Y34.94 E0.27339
G1 X19.307 Y38.94 E0.53645
G1 X25.312 Y45.168 F5400.000
G1 X25.475 Y45.133 E0.53923 F1793.306
G1 X25.287 Y44.961 E0.54152
G1 X24.871 Y45.049 E0.54859
G1 X24.584 Y44.895 E0.55217
G1 X25.078 Y44.793 E0.56058
G1 X24.869 Y44.625 E0.56310
G1 X24.349 Y44.729 E0.57195
G1 X24.135 Y44.566 E0.57452
G1 X24.660 Y44.465 E0.58346
G1 X24.451 Y44.297 E0.58597
G1 X23.926 Y44.398 E0.59491
G1 X23.717 Y44.23 E0.59742
G1 X24.242 Y44.129 E0.60636
G1 X24.034 Y43.961 E0.60887
G1 X23.508 Y44.062 E0.61781
G1 X23.300 Y43.902 E0.62032
G1 X23.825 Y43.793 E0.62926
G1 X23.616 Y43.625 E0.63177
G1 X23.091 Y43.734 E0.64071
G1 X22.882 Y43.566 E0.64322
G1 X23.407 Y43.457 E0.65216
G1 X23.198 Y43.289 E0.65468
G1 X22.673 Y43.398 E0.66361
G1 X22.464 Y43.23 E0.66613
G1 X22.990 Y43.129 E0.67507
G1 X22.781 Y42.961 E0.67758
G1 X22.255 Y43.062 E0.68652
G1 X22.047 Y42.894 E0.68903
G1 X22.572 Y42.793 E0.69797
G1 X22.363 Y42.625 E0.70048
G1 X21.838 Y42.726 E0.70942
G1 X21.629 Y42.558 E0.71193
G1 X22.154 Y42.457 E0.72087
G1 X21.945 Y42.289 E0.72339
G1 X21.420 Y42.398 E0.73233
G1 X21.211 Y42.23 E0.73484
G1 X21.737 Y42.121 E0.74378
G1 X21.528 Y41.953 E0.74629
G1 X21.002 Y42.062 E0.75523
G1 X20.794 Y41.894 E0.75774
G1 X21.319 Y41.785 E0.76669
G1 X21.110 Y41.625 E0.76920
G1 X20.585 Y41.726 E0.77814
G1 X20.376 Y41.558 E0.78065
G1 X20.901 Y41.457 E0.78959
G1 X20.693 Y41.289 E0.79210
G1 X20.167 Y41.39 E0.80105
G1 X19.958 Y41.222 E0.80356
G1 X20.484 Y41.121 E0.81250
G1 X20.275 Y40.953 E0.81501
G1 X19.749 Y41.054 E0.82395
G1 X19.541 Y40.894 E0.82647
G1 X20.066 Y40.785 E0.83541
G1 X19.857 Y40.617 E0.83792
G1 X19.332 Y40.726 E0.84686
G1 X19.123 Y40.558 E0.84937
G1 X19.648 Y40.449 E0.85832
G1 X19.440 Y40.289 E0.86083
G1 X18.914 Y40.39 E0.86977
G1 X18.705 Y40.222 E0.87228
G1 X19.231 Y40.121 E0.88123
G1 X19.022 Y39.953 E0.88374
G1 X18.497 Y40.054 E0.89268
G1 X18.288 Y39.886 E0.89519
G1 X18.813 Y39.785 E0.90414
G1 X18.604 Y39.617 E0.90665
G1 X18.079 Y39.718 E0.91559
G1 X17.870 Y39.558 E0.91810
G1 X18.396 Y39.449 E0.92705
G1 X18.187 Y39.281 E0.92956
G1 X17.661 Y39.39 E0.93850
G1 X17.452 Y39.222 E0.94102
G1 X17.978 Y39.113 E0.94996
G1 X17.769 Y38.945 E0.95247
G1 X17.244 Y39.054 E0.96142
G1 X17.035 Y38.887 E0.96393
G1 X17.560 Y38.785 E0.97287
G1 X17.352 Y38.617 E0.97538
G1 X16.826 Y38.719 E0.98433
G1 X16.617 Y38.551 E0.98684
G1 X17.143 Y38.449 E0.99579
G1 X16.934 Y38.281 E0.99830
G1 X16.408 Y38.383 E1.00724
G1 X16.199 Y38.215 E1.00976
G1 X16.725 Y38.113 E1.01870
G1 X16.516 Y37.945 E1.02121
G1 X15.991 Y38.055 E1.03016
G1 X15.782 Y37.887 E1.03267
G1 X16.307 Y37.777 E1.04162
G1 X16.099 Y37.609 E1.04413
G1 X15.573 Y37.719 E1.05307
G1 X15.364 Y37.551 E1.05559
G1 X15.890 Y37.449 E1.06453
G1 X15.681 Y37.281 E1.06704
G1 X15.155 Y37.383 E1.07599
G1 X14.946 Y37.215 E1.07850
G1 X15.472 Y37.113 E1.08745
G1 X15.263 Y36.945 E1.08996
G1 X14.738 Y37.047 E1.09891
G1 X14.529 Y36.879 E1.10142
G1 X15.055 Y36.777 E1.11036
G1 X14.846 Y36.609 E1.11288
G1 X14.320 Y36.719 E1.12182
G1 X14.111 Y36.551 E1.12434
G1 X14.637 Y36.441 E1.13328
G1 X14.428 Y36.273 E1.13580
G1 X13.902 Y36.383 E1.14474
G1 X13.693 Y36.215 E1.14725
G1 X14.219 Y36.105 E1.15620
G1 X14.010 Y35.945 E1.15871
G1 X13.485 Y36.047 E1.16766
G1 X13.276 Y35.879 E1.17017
G1 X13.802 Y35.777 E1.17912
G1 X13.593 Y35.609 E1.18163
G1 X13.067 Y35.711 E1.19058
G1 X12.858 Y35.543 E1.19309
G1 X13.384 Y35.441 E1.20204
G1 X13.175 Y35.273 E1.20455
G1 X12.649 Y35.375 E1.21350
G1 X12.440 Y35.215 E1.21601
G1 X12.966 Y35.105 E1.22496
G1 X12.758 Y34.937 E1.22748
G1 X12.232 Y35.047 E1.23642
G1 X12.023 Y34.879 E1.23894
G1 X12.549 Y34.769 E1.24788
G1 X12.340 Y34.609 E1.25040
G1 X11.814 Y34.711 E1.25935
G1 X11.605 Y34.543 E1.26186
G1 X12.131 Y34.441 E1.27081
G1 X11.922 Y34.273 E1.27332
G1 X11.396 Y34.375 E1.28227
G1 X11.188 Y34.207 E1.28478
G1 X11.713 Y34.105 E1.29373
G1 X11.505 Y33.937 E1.29624
G1 X10.979 Y34.039 E1.30519
G1 X10.770 Y33.879 E1.30771
G1 X11.296 Y33.769 E1.31665
G1 X11.087 Y33.601 E1.31917
G1 X10.561 Y33.711 E1.32812
G1 X10.352 Y33.543 E1.33063
G1 X10.878 Y33.433 E1.33958
G1 X10.669 Y33.265 E1.34209
G1 X10.143 Y33.375 E1.35104
G1 X9.935 Y33.207 E1.35355
G1 X10.461 Y33.105 E1.36251
G1 X10.252 Y32.937 E1.36502
G1 X9.726 Y33.039 E1.37397
G1 X9.517 Y32.871 E1.37648
G1 X10.043 Y32.769 E1.38543
G1 X9.834 Y32.601 E1.38794
G1 X9.308 Y32.703 E1.39690
G1 X9.099 Y32.535 E1.39941
G1 X9.625 Y32.433 E1.40836
G1 X9.416 Y32.265 E1.41087
G1 X8.890 Y32.375 E1.41982
G1 X8.682 Y32.207 E1.42234
G1 X9.208 Y32.097 E1.43129
G1 X8.999 Y31.929 E1.43380
G1 X8.473 Y32.039 E1.44275
G1 X8.264 Y31.871 E1.44526
G1 X8.790 Y31.769 E1.45422
G1 X8.581 Y31.601 E1.45673
G1 X8.055 Y31.703 E1.46568
G1 X7.846 Y31.535 E1.46819
G1 X8.372 Y31.433 E1.47715
G1 X8.164 Y31.265 E1.47966
G1 X7.637 Y31.367 E1.48861
G1 X7.429 Y31.199 E1.49112
G1 X7.955 Y31.097 E1.50008
G1 X7.746 Y30.929 E1.50259
G1 X7.220 Y31.039 E1.51154
G1 X7.011 Y30.871 E1.51405
G1 X7.537 Y30.761 E1.52301
G1 X7.328 Y30.593 E1.52552
G1 X6.802 Y30.703 E1.53447
G1 X6.593 Y30.535 E1.53698
G1 X7.119 Y30.425 E1.54594
G1 X6.911 Y30.265 E1.54845
G1 X6.384 Y30.367 E1.55740
G1 X6.176 Y30.199 E1.55992
G1 X6.702 Y30.097 E1.56887
G1 X6.493 Y29.929 E1.57138
G1 X5.967 Y30.031 E1.58034
G1 X5.758 Y29.863 E1.58285
G1 X6.284 Y29.761 E1.59180
G1 X6.075 Y29.593 E1.59432
G1 X5.563 Y29.697 E1.60303
G1 X5.370 Y29.529 E1.60536
G1 X5.867 Y29.425 E1.61381
G1 X5.658 Y29.257 E1.61632
G1 X5.201 Y29.354 E1.62409
G1 X5.044 Y29.174 E1.62608
G1 X5.449 Y29.089 E1.63296
G1 X5.240 Y28.929 E1.63548
G1 X4.897 Y28.992 E1.64132
G1 X4.761 Y28.815 E1.64317
G1 X5.031 Y28.761 E1.64777
G1 X4.823 Y28.593 E1.65028
G1 X4.636 Y28.627 E1.65345
G1 X4.531 Y28.443 E1.65523
G1 X4.614 Y28.425 E1.65663
G1 X4.614 Y28.425 F5400.000
G1 X4.531 Y28.443 E1.65803 F1793.302
G1 X4.636 Y28.627 E1.65981
G1 X4.822 Y28.593 E1.66297
G1 X5.031 Y28.761 E1.66549
G1 X4.761 Y28.815 E1.67008
G1 X4.897 Y28.992 E1.67194
G1 X5.240 Y28.929 E1.67778
G1 X5.449 Y29.089 E1.68029
G1 X5.044 Y29.174 E1.68718
G1 X5.201 Y29.354 E1.68916
G1 X5.658 Y29.257 E1.69694
G1 X5.867 Y29.425 E1.69945
G1 X5.370 Y29.529 E1.70790
G1 X5.563 Y29.697 E1.71023
G1 X6.075 Y29.593 E1.71894
G1 X6.284 Y29.761 E1.72145
G1 X5.758 Y29.863 E1.73041
G1 X5.967 Y30.031 E1.73292
G1 X6.493 Y29.929 E1.74187
G1 X6.702 Y30.097 E1.74439
G1 X6.176 Y30.199 E1.75334
G1 X6.384 Y30.367 E1.75585
G1 X6.911 Y30.265 E1.76481
G1 X7.119 Y30.425 E1.76732
G1 X6.593 Y30.535 E1.77627
G1 X6.802 Y30.703 E1.77879
G1 X7.328 Y30.593 E1.78774
G1 X7.537 Y30.761 E1.79025
G1 X7.011 Y30.871 E1.79921
G1 X7.220 Y31.039 E1.80172
G1 X7.746 Y30.929 E1.81067
G1 X7.955 Y31.097 E1.81318
G1 X7.429 Y31.199 E1.82214
G1 X7.637 Y31.367 E1.82465
G1 X8.164 Y31.265 E1.83360
G1 X8.372 Y31.433 E1.83611
G1 X7.846 Y31.535 E1.84507
G1 X8.055 Y31.703 E1.84758
G1 X8.581 Y31.601 E1.85653
G1 X8.790 Y31.769 E1.85904
G1 X8.264 Y31.871 E1.86800
G1 X8.473 Y32.039 E1.87051
G1 X8.999 Y31.929 E1.87946
G1 X9.208 Y32.097 E1.88197
G1 X8.682 Y32.207 E1.89093
G1 X8.890 Y32.375 E1.89344
G1 X9.416 Y32.265 E1.90239
G1 X9.625 Y32.433 E1.90490
G1 X9.099 Y32.535 E1.91385
G1 X9.308 Y32.703 E1.91637
G1 X9.834 Y32.601 E1.92532
G1 X10.043 Y32.769 E1.92783
G1 X9.517 Y32.871 E1.93678
G1 X9.726 Y33.039 E1.93929
G1 X10.252 Y32.937 E1.94825
G1 X10.461 Y33.105 E1.95076
G1 X9.935 Y33.207 E1.95971
G1 X10.143 Y33.375 E1.96222
G1 X10.669 Y33.265 E1.97117
G1 X10.878 Y33.433 E1.97368
G1 X10.352 Y33.543 E1.98263
G1 X10.561 Y33.711 E1.98515
G1 X11.087 Y33.601 E1.99410
G1 X11.296 Y33.769 E1.99661
G1 X10.770 Y33.879 E2.00556
G1 X10.979 Y34.039 E2.00807
G1 X11.505 Y33.937 E2.01702
G1 X11.713 Y34.105 E2.01953
G1 X11.187 Y34.207 E2.02848
G1 X11.396 Y34.375 E2.03100
G1 X11.922 Y34.273 E2.03995
G1 X12.131 Y34.441 E2.04246
G1 X11.605 Y34.543 E2.05141
G1 X11.814 Y34.711 E2.05392
G1 X12.340 Y34.609 E2.06287
G1 X12.549 Y34.769 E2.06538
G1 X12.023 Y34.879 E2.07433
G1 X12.232 Y35.047 E2.07684
G1 X12.758 Y34.937 E2.08579
G1 X12.966 Y35.105 E2.08830
G1 X12.440 Y35.215 E2.09725
G1 X12.649 Y35.375 E2.09977
G1 X13.175 Y35.273 E2.10871
G1 X13.384 Y35.441 E2.11123
G1 X12.858 Y35.543 E2.12017
G1 X13.067 Y35.711 E2.12269
G1 X13.593 Y35.609 E2.13164
G1 X13.802 Y35.777 E2.13415
G1 X13.276 Y35.879 E2.14310
G1 X13.485 Y36.047 E2.14561
G1 X14.010 Y35.945 E2.15456
G1 X14.219 Y36.105 E2.15707
G1 X13.693 Y36.215 E2.16602
G1 X13.902 Y36.383 E2.16853
G1 X14.428 Y36.273 E2.17748
G1 X14.637 Y36.441 E2.17999
G1 X14.111 Y36.551 E2.18893
G1 X14.320 Y36.719 E2.19145
G1 X14.846 Y36.609 E2.20039
G1 X15.055 Y36.777 E2.20291
G1 X14.529 Y36.879 E2.21185
G1 X14.738 Y37.047 E2.21437
G1 X15.263 Y36.945 E2.22331
G1 X15.472 Y37.113 E2.22582
G1 X14.946 Y37.215 E2.23477
G1 X15.155 Y37.383 E2.23728
G1 X15.681 Y37.281 E2.24623
G1 X15.890 Y37.449 E2.24874
G1 X15.364 Y37.551 E2.25769
G1 X15.573 Y37.719 E2.26020
G1 X16.099 Y37.609 E2.26915
G1 X16.307 Y37.777 E2.27166
G1 X15.782 Y37.887 E2.28060
G1 X15.991 Y38.055 E2.28312
G1 X16.516 Y37.945 E2.29206
G1 X16.725 Y38.113 E2.29457
G1 X16.199 Y38.215 E2.30352
G1 X16.408 Y38.383 E2.30603
G1 X16.934 Y38.281 E2.31498
G1 X17.143 Y38.449 E2.31749
G1 X16.617 Y38.551 E2.32643
G1 X16.826 Y38.719 E2.32895
G1 X17.352 Y38.617 E2.33789
G1 X17.560 Y38.785 E2.34040
G1 X17.035 Y38.887 E2.34935
G1 X17.244 Y39.055 E2.35186
G1 X17.769 Y38.945 E2.36080
G1 X17.978 Y39.113 E2.36332
G1 X17.452 Y39.222 E2.37226
G1 X17.661 Y39.39 E2.37477
G1 X18.187 Y39.281 E2.38372
G1 X18.396 Y39.449 E2.38623
G1 X17.870 Y39.558 E2.39517
G1 X18.079 Y39.718 E2.39769
G1 X18.604 Y39.617 E2.40663
G1 X18.813 Y39.785 E2.40914
G1 X18.288 Y39.886 E2.41808
G1 X18.496 Y40.054 E2.42060
G1 X19.022 Y39.953 E2.42954
G1 X19.231 Y40.121 E2.43205
G1 X18.705 Y40.222 E2.44099
G1 X18.914 Y40.39 E2.44351
G1 X19.440 Y40.289 E2.45245
G1 X19.649 Y40.449 E2.45496
G1 X19.123 Y40.558 E2.46390
G1 X19.332 Y40.726 E2.46642
G1 X19.857 Y40.617 E2.47536
G1 X20.066 Y40.785 E2.47787
G1 X19.541 Y40.894 E2.48681
G1 X19.749 Y41.054 E2.48933
G1 X20.275 Y40.953 E2.49827
G1 X20.484 Y41.121 E2.50078
G1 X19.958 Y41.222 E2.50972
G1 X20.167 Y41.39 E2.51224
G1 X20.693 Y41.289 E2.52118
G1 X20.901 Y41.457 E2.52369
G1 X20.376 Y41.558 E2.53263
G1 X20.585 Y41.726 E2.53514
G1 X21.110 Y41.625 E2.54408
G1 X21.319 Y41.785 E2.54660
G1 X20.794 Y41.894 E2.55554
G1 X21.002 Y42.062 E2.55805
G1 X21.528 Y41.953 E2.56699
G1 X21.737 Y42.121 E2.56950
G1 X21.211 Y42.23 E2.57844
G1 X21.420 Y42.398 E2.58096
G1 X21.945 Y42.289 E2.58990
G1 X22.154 Y42.457 E2.59241
G1 X21.629 Y42.558 E2.60135
G1 X21.838 Y42.726 E2.60386
G1 X22.363 Y42.625 E2.61280
G1 X22.572 Y42.793 E2.61531
G1 X22.047 Y42.894 E2.62425
G1 X22.255 Y43.062 E2.62677
G1 X22.781 Y42.961 E2.63571
G1 X22.990 Y43.129 E2.63822
G1 X22.464 Y43.23 E2.64716
G1 X22.673 Y43.398 E2.64967
G1 X23.198 Y43.289 E2.65861
G1 X23.407 Y43.457 E2.66112
G1 X22.882 Y43.566 E2.67006
G1 X23.091 Y43.734 E2.67257
G1 X23.616 Y43.625 E2.68151
G1 X23.825 Y43.793 E2.68402
G1 X23.300 Y43.902 E2.69296
G1 X23.508 Y44.062 E2.69548
G1 X24.034 Y43.961 E2.70441
G1 X24.242 Y44.129 E2.70693
G1 X23.717 Y44.23 E2.71586
G1 X23.926 Y44.398 E2.71838
G1 X24.451 Y44.297 E2.72732
G1 X24.660 Y44.465 E2.72983
G1 X24.135 Y44.566 E2.73877
G1 X24.349 Y44.729 E2.74134
G1 X24.869 Y44.625 E2.75019
G1 X25.078 Y44.793 E2.75270
G1 X24.584 Y44.895 E2.76111
G1 X24.871 Y45.049 E2.76469
